;FLAVOR:Marlin
;TIME:523
;Filament used: 0.33921m
;Layer height: 0.2
;MINX:47.375
;MINY:45.639
;MINZ:0.2
;MAXX:72.625
;MAXY:74.376
;MAXZ:5.4
;TARGET_MACHINE.NAME:VORON 0
;Generated with Cura_SteamEngine 5.7.2
M104 S265
M105
M109 S265
M82 ;absolute extrusion mode
;START_PRINT EXTRUDER_TEMP=265 BED_TEMP=110
;Nozzle diameter = 0.4
;Filament type = ABS
;Filament name = ABS
;Filament weight = [0.8974854614257813]
; M190 S110
; M109 S265
print_start EXTRUDER=265 BED=110 CHAMBER=36
G92 E0
G92 E0
G1 F1800 E-0.75
;LAYER_COUNT:27
;LAYER:0
M107
G1 F600 Z0.4
G0 F7200 X51.581 Y48.259 Z0.4
;TYPE:SKIRT
G1 F600 Z0.2
G1 F720 E0
G1 F2100 X52.002 Y47.835 E0.02057
G1 X52.226 Y47.634 E0.03093
G1 X52.626 Y47.31 E0.04865
G1 X52.874 Y47.128 E0.05924
G1 X53.195 Y46.919 E0.07242
G1 X53.816 Y46.561 E0.0971
G1 X54.189 Y46.375 E0.11145
G1 X54.805 Y46.123 E0.13436
G1 X55.373 Y45.94 E0.1549
G1 X55.871 Y45.817 E0.17256
G1 X56.447 Y45.717 E0.19269
G1 X57.047 Y45.657 E0.21344
G1 X57.507 Y45.639 E0.22929
G1 X57.859 Y45.643 E0.24141
G1 X58.27 Y45.665 E0.25558
G1 X58.575 Y45.694 E0.26612
G1 X58.918 Y45.743 E0.27805
G1 X59.282 Y45.813 E0.29081
G1 X59.835 Y45.948 E0.31041
G1 X60.327 Y46.1 E0.32813
G1 X60.678 Y46.236 E0.34109
G1 X61.232 Y46.483 E0.36197
G1 X61.637 Y46.695 E0.37771
G1 X62.123 Y46.99 E0.39728
G1 X62.581 Y47.319 E0.41669
G1 X63.092 Y47.746 E0.43962
G1 X63.557 Y48.177 E0.46144
G1 X70.326 Y54.957 E0.79125
G1 X70.516 Y55.163 E0.80089
G1 X70.914 Y55.628 E0.82196
G1 X71.202 Y56.01 E0.83843
G1 X71.504 Y56.481 E0.85769
G1 X71.733 Y56.89 E0.87383
G1 X71.944 Y57.328 E0.89057
G1 X72.146 Y57.824 E0.909
G1 X72.327 Y58.404 E0.92992
G1 X72.462 Y59.013 E0.95139
G1 X72.564 Y59.66 E0.97394
G1 X72.605 Y60.113 E0.9896
G1 X72.62 Y60.609 E1.00668
G1 X72.625 Y69.573 E1.31526
G1 X72.611 Y70.375 E1.34287
G1 X72.54 Y71.017 E1.3651
G1 X72.414 Y71.508 E1.38255
G1 X72.099 Y72.236 E1.40986
G1 X71.785 Y72.721 E1.42975
G1 X71.359 Y73.204 E1.45192
G1 X70.8 Y73.659 E1.47673
G1 X70.363 Y73.917 E1.4942
G1 X69.767 Y74.163 E1.5164
G1 X69.007 Y74.335 E1.54322
G1 X68.607 Y74.366 E1.55703
G1 X68.036 Y74.375 E1.57669
G1 X66.85 Y74.354 E1.61752
G1 X64.098 Y74.34 E1.71226
G1 X61.972 Y74.372 E1.78546
G1 X60.138 Y74.371 E1.84859
G1 X58.55 Y74.348 E1.90326
G1 X55.852 Y74.346 E1.99614
G1 X54.234 Y74.373 E2.05184
G1 X52.167 Y74.376 E2.123
G1 X51.391 Y74.364 E2.14972
G1 X50.886 Y74.318 E2.16717
G1 X50.122 Y74.126 E2.19429
G1 X49.655 Y73.926 E2.21178
G1 X48.983 Y73.5 E2.23917
G1 X48.507 Y73.068 E2.2613
G1 X48.143 Y72.623 E2.28109
G1 X47.81 Y72.06 E2.3036
G1 X47.549 Y71.386 E2.32848
G1 X47.429 Y70.832 E2.348
G1 X47.386 Y70.365 E2.36414
G1 X47.376 Y70.003 E2.37661
G1 X47.375 Y67.895 E2.44917
G1 X47.386 Y67.188 E2.47352
G1 X47.467 Y66.438 E2.49948
G1 X48.069 Y63.444 E2.60461
G1 X48.531 Y60.743 E2.69894
G1 X48.909 Y58.09 E2.79119
G1 X49.33 Y54.15 E2.9276
G1 X49.418 Y53.129 E2.96287
G1 X49.518 Y52.415 E2.98769
G1 X49.606 Y51.978 E3.00304
G1 X49.732 Y51.495 E3.02022
G1 X49.838 Y51.157 E3.03242
G1 X50.061 Y50.585 E3.05355
G1 X50.295 Y50.092 E3.07234
G1 X50.614 Y49.53 E3.09458
G1 X50.935 Y49.049 E3.11449
G1 X51.195 Y48.707 E3.12928
G1 X51.581 Y48.259 E3.14963
G0 F7200 X51.9 Y48.576
G1 F2100 X52.304 Y48.169 E3.16937
G1 X52.51 Y47.983 E3.17893
G1 X52.893 Y47.672 E3.19591
G1 X53.12 Y47.505 E3.20561
G1 X53.42 Y47.309 E3.21795
G1 X54.017 Y46.964 E3.24169
G1 X54.39 Y46.778 E3.25603
G1 X54.943 Y46.551 E3.27661
G1 X55.481 Y46.377 E3.29608
G1 X55.979 Y46.254 E3.31374
G1 X56.492 Y46.165 E3.33166
G1 X57.065 Y46.107 E3.35148
G1 X57.503 Y46.089 E3.36658
G1 X57.835 Y46.092 E3.378
G1 X58.228 Y46.113 E3.39155
G1 X58.513 Y46.14 E3.40141
G1 X58.834 Y46.185 E3.41257
G1 X59.176 Y46.25 E3.42455
G1 X59.703 Y46.378 E3.44322
G1 X60.165 Y46.52 E3.45986
G1 X60.495 Y46.647 E3.47203
G1 X61.024 Y46.882 E3.49196
G1 X61.404 Y47.08 E3.50671
G1 X61.861 Y47.356 E3.52508
G1 X62.293 Y47.665 E3.54337
G1 X62.786 Y48.076 E3.56546
G1 X63.239 Y48.495 E3.58671
G1 X69.995 Y55.262 E3.91588
G1 X70.174 Y55.456 E3.92496
G1 X70.572 Y55.921 E3.94603
G1 X70.842 Y56.28 E3.9615
G1 X71.111 Y56.701 E3.9787
G1 X71.34 Y57.11 E3.99483
G1 X71.528 Y57.499 E4.0097
G1 X71.716 Y57.958 E4.02678
G1 X71.897 Y58.538 E4.0477
G1 X72.017 Y59.083 E4.06691
G1 X72.119 Y59.73 E4.08945
G1 X72.155 Y60.127 E4.10318
G1 X72.17 Y60.609 E4.11978
G1 X72.175 Y69.566 E4.42811
G1 X72.163 Y70.329 E4.45438
G1 X72.104 Y70.905 E4.47432
G1 X71.978 Y71.396 E4.49177
G1 X71.721 Y71.991 E4.51408
G1 X71.407 Y72.476 E4.53397
G1 X71.072 Y72.857 E4.55143
G1 X70.571 Y73.271 E4.5738
G1 X70.134 Y73.529 E4.59127
G1 X69.598 Y73.746 E4.61118
G1 X68.972 Y73.886 E4.63326
G1 X68.572 Y73.917 E4.64707
G1 X68.044 Y73.925 E4.66525
G1 X66.858 Y73.904 E4.70608
G1 X64.093 Y73.89 E4.80127
G1 X61.972 Y73.922 E4.87429
G1 X60.145 Y73.921 E4.93718
G1 X58.557 Y73.898 E4.99185
G1 X55.844 Y73.896 E5.08525
G1 X54.233 Y73.923 E5.14071
G1 X52.173 Y73.926 E5.21163
G1 X51.432 Y73.916 E5.23714
G1 X50.927 Y73.87 E5.25459
G1 X50.299 Y73.712 E5.27689
G1 X49.832 Y73.512 E5.29437
G1 X49.283 Y73.165 E5.31673
G1 X48.853 Y72.78 E5.3366
G1 X48.528 Y72.39 E5.35408
G1 X48.228 Y71.894 E5.37403
G1 X47.989 Y71.291 E5.39636
G1 X47.869 Y70.737 E5.41587
G1 X47.836 Y70.352 E5.42918
G1 X47.826 Y70.003 E5.44119
G1 X47.825 Y67.902 E5.51352
G1 X47.836 Y67.195 E5.53786
G1 X47.908 Y66.527 E5.56099
G1 X48.513 Y63.52 E5.66658
G1 X48.975 Y60.819 E5.76091
G1 X49.354 Y58.153 E5.85361
G1 X49.777 Y54.198 E5.99053
G1 X49.864 Y53.191 E6.02532
G1 X49.964 Y52.477 E6.05014
G1 X50.042 Y52.091 E6.0637
G1 X50.162 Y51.629 E6.08013
G1 X50.258 Y51.32 E6.09127
G1 X50.468 Y50.778 E6.11128
G1 X50.702 Y50.285 E6.13006
G1 X51.005 Y49.753 E6.15114
G1 X51.309 Y49.299 E6.16995
G1 X51.536 Y49 E6.18287
G1 X51.9 Y48.576 E6.20211
G0 F7200 X52.219 Y48.893
G1 F2100 X52.607 Y48.502 E6.22107
G1 X52.794 Y48.332 E6.22977
G1 X53.16 Y48.034 E6.24602
G1 X53.366 Y47.882 E6.25483
G1 X53.666 Y47.686 E6.26717
G1 X54.219 Y47.366 E6.28916
G1 X54.561 Y47.194 E6.30234
G1 X55.083 Y46.979 E6.32177
G1 X55.589 Y46.814 E6.34009
G1 X56.087 Y46.691 E6.35775
G1 X56.538 Y46.613 E6.37351
G1 X57.084 Y46.557 E6.3924
G1 X57.5 Y46.539 E6.40674
G1 X57.811 Y46.541 E6.41744
G1 X58.186 Y46.561 E6.43037
G1 X58.452 Y46.586 E6.43957
G1 X58.751 Y46.627 E6.44996
G1 X59.07 Y46.687 E6.46113
G1 X59.571 Y46.808 E6.47887
G1 X60.033 Y46.95 E6.49551
G1 X60.313 Y47.059 E6.50585
G1 X60.817 Y47.282 E6.52483
G1 X61.172 Y47.466 E6.53859
G1 X61.6 Y47.723 E6.55578
G1 X62.005 Y48.011 E6.57288
G1 X62.498 Y48.422 E6.59498
G1 X62.921 Y48.813 E6.61481
G1 X69.664 Y55.567 E6.94335
G1 X69.832 Y55.749 E6.95187
G1 X70.23 Y56.214 E6.97294
G1 X70.463 Y56.522 E6.98624
G1 X70.718 Y56.921 E7.00254
G1 X70.947 Y57.33 E7.01868
G1 X71.112 Y57.671 E7.03172
G1 X71.287 Y58.093 E7.04744
G1 X71.458 Y58.635 E7.06701
G1 X71.572 Y59.153 E7.08527
G1 X71.674 Y59.8 E7.10781
G1 X71.705 Y60.141 E7.1196
G1 X71.72 Y60.609 E7.13572
G1 X71.725 Y69.56 E7.44385
G1 X71.715 Y70.287 E7.46888
G1 X71.668 Y70.793 E7.48637
G1 X71.542 Y71.284 E7.50382
G1 X71.341 Y71.75 E7.52129
G1 X71.069 Y72.179 E7.53878
G1 X70.734 Y72.56 E7.55624
G1 X70.342 Y72.883 E7.57373
G1 X69.905 Y73.141 E7.5912
G1 X69.433 Y73.327 E7.60866
G1 X68.937 Y73.437 E7.62615
G1 X68.537 Y73.468 E7.63996
G1 X68.052 Y73.475 E7.65666
G1 X66.866 Y73.454 E7.6975
G1 X64.088 Y73.44 E7.79313
G1 X61.972 Y73.472 E7.86598
G1 X60.152 Y73.471 E7.92863
G1 X58.564 Y73.448 E7.9833
G1 X55.836 Y73.446 E8.07721
G1 X54.232 Y73.473 E8.13243
G1 X52.178 Y73.476 E8.20314
G1 X51.473 Y73.468 E8.22741
G1 X50.968 Y73.422 E8.24487
G1 X50.476 Y73.298 E8.26233
G1 X50.009 Y73.098 E8.27982
G1 X49.58 Y72.827 E8.29729
G1 X49.199 Y72.492 E8.31476
G1 X48.874 Y72.102 E8.33223
G1 X48.615 Y71.665 E8.34972
G1 X48.428 Y71.193 E8.3672
G1 X48.317 Y70.698 E8.38466
G1 X48.286 Y70.339 E8.39706
G1 X48.276 Y70.003 E8.40863
G1 X48.275 Y67.909 E8.48072
G1 X48.286 Y67.202 E8.50506
G1 X48.349 Y66.616 E8.52535
G1 X48.957 Y63.596 E8.6314
G1 X49.419 Y60.895 E8.72573
G1 X49.799 Y58.216 E8.81887
G1 X50.224 Y54.246 E8.95632
G1 X50.31 Y53.253 E8.99063
G1 X50.41 Y52.539 E9.01545
G1 X50.478 Y52.204 E9.02721
G1 X50.592 Y51.763 E9.04289
G1 X50.688 Y51.454 E9.05403
G1 X50.875 Y50.971 E9.07186
G1 X51.109 Y50.478 E9.09065
G1 X51.379 Y50.003 E9.10946
G1 X51.683 Y49.549 E9.12827
G1 X51.878 Y49.292 E9.13937
G1 X52.219 Y48.893 E9.15744
G1 F1800 E8.40744
G1 F600 Z0.4
;MESH:[a]_klicky_dock_bottom_x1.stl
G0 F7200 X57.286 Y50.662 Z0.4
;TYPE:WALL-INNER
G1 F600 Z0.2
G1 F720 E9.15744
G1 F2100 X57.496 Y50.648 E9.16388
G1 X57.7 Y50.648 E9.17012
G1 X57.906 Y50.662 E9.17644
G1 X58.12 Y50.689 E9.18304
G1 X58.318 Y50.728 E9.18921
G1 X58.702 Y50.839 E9.20145
G1 X58.945 Y50.943 E9.20953
G1 X59.244 Y51.101 E9.21988
G1 X59.612 Y51.357 E9.2336
G1 X59.777 Y51.502 E9.24032
G1 X66.901 Y58.63 E9.54869
G1 X67.003 Y58.756 E9.55365
G1 X67.173 Y59.002 E9.5628
G1 X67.261 Y59.154 E9.56818
G1 X67.337 Y59.313 E9.57357
G1 X67.449 Y59.595 E9.58285
G1 X67.542 Y59.939 E9.59376
G1 X67.586 Y60.231 E9.60279
G1 X67.6 Y60.458 E9.60975
G1 X67.6 Y64.411 E9.73071
G1 X67.452 Y64.271 E9.73695
G1 X67.1 Y64.002 E9.7505
G1 X66.722 Y63.775 E9.76399
G1 X66.322 Y63.592 E9.77745
G1 X65.942 Y63.467 E9.78969
G1 X65.709 Y63.411 E9.79703
G1 X65.295 Y63.346 E9.80985
G1 X64.784 Y63.329 E9.82549
G1 X64.4 Y63.357 E9.83728
G1 X63.975 Y63.434 E9.85049
G1 X63.539 Y63.567 E9.86444
G1 X63.117 Y63.754 E9.87856
G1 X62.736 Y63.974 E9.89203
G1 X62.512 Y64.137 E9.9005
G1 X62.228 Y64.377 E9.91188
G1 X62.091 Y64.507 E9.91766
G1 X61.822 Y64.812 E9.9301
G1 X61.558 Y65.192 E9.94426
G1 X61.44 Y65.388 E9.95126
G1 X61.257 Y65.784 E9.96461
G1 X61.114 Y66.207 E9.97828
G1 X61.051 Y66.484 E9.98697
G1 F2164.9 X61.004 Y66.872 E9.99857
G1 F2258.1 X61.001 Y67.002 E10.00227
G1 F2193.2 X60.962 Y66.58 E10.01469
G1 F2105.3 X60.864 Y66.142 E10.02839
G1 F2100 X60.792 Y65.92 E10.03553
G1 X60.615 Y65.499 E10.0495
G1 X60.423 Y65.162 E10.06137
G1 X60.153 Y64.789 E10.07546
G1 X60.026 Y64.632 E10.08164
G1 X59.73 Y64.338 E10.0944
G1 X59.536 Y64.173 E10.1022
G1 X59.18 Y63.924 E10.11549
G1 X58.836 Y63.729 E10.12759
G1 X58.423 Y63.556 E10.14129
G1 X57.926 Y63.416 E10.15709
G1 X57.554 Y63.352 E10.16864
G1 X57.113 Y63.324 E10.18216
G1 X56.655 Y63.353 E10.19621
G1 X56.171 Y63.438 E10.21124
G1 X55.943 Y63.499 E10.21846
G1 X55.623 Y63.615 E10.22888
G1 X55.225 Y63.802 E10.24234
G1 X54.809 Y64.062 E10.25735
G1 X54.653 Y64.178 E10.2633
G1 X54.388 Y64.417 E10.27421
G1 X54.4 Y53.75 E10.60062
G1 X54.428 Y53.419 E10.61078
G1 X54.476 Y53.157 E10.61893
G1 X54.523 Y52.962 E10.62507
G1 X54.592 Y52.745 E10.63204
G1 X54.686 Y52.524 E10.63939
G1 X54.789 Y52.318 E10.64643
G1 X54.906 Y52.117 E10.65355
G1 X55.043 Y51.923 E10.66082
G1 X55.191 Y51.741 E10.668
G1 X55.341 Y51.577 E10.6748
G1 X55.508 Y51.423 E10.68175
G1 X55.68 Y51.284 E10.68852
G1 X55.957 Y51.1 E10.69869
G1 X56.254 Y50.941 E10.709
G1 X56.574 Y50.814 E10.71953
G1 X56.876 Y50.729 E10.72913
G1 X57.077 Y50.689 E10.73541
G1 X57.286 Y50.662 E10.74185
G1 F1800 E9.99185
G0 F7200 X57.3 Y50.767
G0 X56.323 Y51.087
G0 X55.613 Y51.545
G0 X55.041 Y52.205
G0 X54.678 Y53.006
G0 X54.561 Y53.757
G0 X54.576 Y64.01
G0 X57.584 Y63.194
G0 X60.356 Y64.756
G0 X60.615 Y65.819
G0 X60.997 Y67.69
G1 F720 E10.74185
G1 F2187.5 X61.001 Y67.002 E10.76206
G0 F7200 X60.997 Y68.682
G0 X60.996 Y68.119
G1 F1519 X61.124 Y68.574 E10.78206
G1 X61.302 Y69.002 E10.80167
G1 X61.452 Y69.272 E10.81473
G1 X60.546 Y69.272 E10.85306
G1 X60.617 Y69.153 E10.85892
G1 X60.785 Y68.809 E10.87512
G1 X60.957 Y68.306 E10.89761
G1 X60.996 Y68.119 E10.90569
G1 F1800 E10.15569
G1 F600 Z0.4
G0 F7200 X53.177 Y67.13 Z0.4
G1 F600 Z0.2
G1 F720 E10.90569
G1 F2100 X53.181 Y67.506 E10.91719
G1 X53.239 Y67.961 E10.93123
G1 X53.327 Y68.337 E10.94305
G1 X53.481 Y68.765 E10.95696
G1 X53.674 Y69.162 E10.97047
G1 X53.787 Y69.347 E10.97711
G1 X52.4 Y69.35 E11.01955
G1 X52.397 Y67.778 E11.06765
G1 X52.703 Y67.559 E11.07916
G1 X52.903 Y67.4 E11.08698
G1 X53.177 Y67.13 E11.09875
G1 F1800 E10.34875
G0 F7200 X53.101 Y67.675
G0 X53.501 Y69.038
G0 X54.032 Y68.985
;TYPE:WALL-OUTER
G1 F720 E11.09875
G1 F2100 X53.864 Y68.645 E11.11036
G1 X53.717 Y68.246 E11.12337
G1 X53.626 Y67.858 E11.13556
G1 X53.58 Y67.476 E11.14734
G1 X53.577 Y67.048 E11.16043
G1 X53.633 Y66.617 E11.17373
G1 F1555.6 X53.619 Y66.095 E11.1953
G1 X53.23 Y66.448 E11.217
G1 F2100 X53.114 Y66.602 E11.2229
G1 X52.876 Y66.868 E11.23382
G1 X52.617 Y67.118 E11.24484
G1 X52.182 Y67.441 E11.26142
G1 X51.997 Y67.551 E11.268
G1 X52 Y69.751 E11.33532
G1 X54.602 Y69.744 E11.41494
G1 X54.341 Y69.446 E11.42706
G1 X54.214 Y69.278 E11.43351
G1 X54.032 Y68.985 E11.44406
G0 F7200 X53.944 Y68.806
G1 F1800 E10.69406
G0 F7200 X53.501 Y69.038
G0 X53.356 Y67.252
G0 X53.426 Y66.549
G0 X53.619 Y66.095
G1 F720 E11.44406
G1 F1222.7 X53.948 Y65.366 E11.4861
G1 F1800 E10.7361
G0 F7200 X54.121 Y64.99
G0 X54.737 Y64.321
G0 X55.661 Y63.774
G0 X56.647 Y63.515
G0 X57.503 Y63.509
G0 X58.339 Y63.697
G0 X59.108 Y64.069
G0 X59.886 Y64.72
G0 X60.487 Y65.609
G0 X60.813 Y66.63
G0 X60.822 Y66.918
G0 X60.843 Y69.097
G0 X60.179 Y68.962
G1 F720 E11.4861
G1 F2100 X59.983 Y69.278 E11.49747
G1 X59.722 Y69.607 E11.51032
G1 X59.593 Y69.747 E11.51615
G1 X62.404 Y69.745 E11.60216
G1 X62.17 Y69.482 E11.61294
G1 X61.934 Y69.156 E11.62525
G1 X61.75 Y68.836 E11.63655
G1 X61.58 Y68.438 E11.64979
G1 X61.471 Y68.07 E11.66153
G1 X61.399 Y67.69 E11.67337
G1 X61.372 Y67.265 E11.6864
G1 X61.394 Y66.872 E11.69844
G1 X61.448 Y66.536 E11.70886
G1 X61.494 Y66.332 E11.71526
G1 X61.621 Y65.949 E11.7276
G1 X61.773 Y65.613 E11.73889
G1 X61.89 Y65.416 E11.7459
G1 X62.107 Y65.095 E11.75775
G1 X62.369 Y64.795 E11.76994
G1 X62.486 Y64.683 E11.7749
G1 X62.783 Y64.433 E11.78678
G1 X62.972 Y64.298 E11.79388
G1 X63.301 Y64.109 E11.80549
G1 X63.637 Y63.957 E11.81678
G1 X64.05 Y63.827 E11.83003
G1 X64.429 Y63.756 E11.84183
G1 X64.835 Y63.728 E11.85428
G1 X65.235 Y63.742 E11.86653
G1 X65.618 Y63.801 E11.87838
G1 X65.821 Y63.849 E11.88477
G1 X66.158 Y63.957 E11.8956
G1 X66.518 Y64.119 E11.90768
G1 X66.86 Y64.323 E11.91986
G1 X67.178 Y64.562 E11.93203
G1 X67.458 Y64.826 E11.94381
G1 X67.601 Y64.984 E11.95033
G1 X67.814 Y65.27 E11.96124
G1 X67.942 Y65.475 E11.96864
G1 X68 Y65.587 E11.9725
G1 X68 Y60.446 E12.12981
G1 X67.984 Y60.189 E12.13769
G1 X67.935 Y59.863 E12.14777
G1 X67.886 Y59.657 E12.15425
G1 X67.827 Y59.463 E12.16046
G1 X67.704 Y59.153 E12.17066
G1 X67.615 Y58.966 E12.177
G1 X67.511 Y58.788 E12.18331
G1 X67.323 Y58.516 E12.19343
G1 X67.199 Y58.362 E12.19948
G1 X60.051 Y51.21 E12.50888
G1 X59.862 Y51.045 E12.51656
G1 X59.449 Y50.757 E12.53197
G1 X59.117 Y50.581 E12.54347
G1 X58.836 Y50.461 E12.55282
G1 X58.412 Y50.339 E12.56632
G1 X58.184 Y50.294 E12.57343
G1 X57.944 Y50.264 E12.58083
G1 X57.713 Y50.248 E12.58791
G1 X57.483 Y50.248 E12.59495
G1 X57.248 Y50.264 E12.60216
G1 X57.013 Y50.294 E12.60941
G1 X56.783 Y50.339 E12.61658
G1 X56.445 Y50.434 E12.62732
G1 X56.085 Y50.578 E12.63919
G1 X55.751 Y50.756 E12.65077
G1 X55.443 Y50.962 E12.66211
G1 X55.247 Y51.12 E12.66981
G1 X55.058 Y51.294 E12.67767
G1 X54.888 Y51.479 E12.68536
G1 X54.724 Y51.681 E12.69332
G1 X54.569 Y51.901 E12.70156
G1 X54.437 Y52.128 E12.70959
G1 X54.322 Y52.356 E12.71741
G1 X54.216 Y52.606 E12.72571
G1 X54.137 Y52.854 E12.73368
G1 X54.084 Y53.074 E12.7406
G1 X54.031 Y53.367 E12.74971
G1 X54 Y53.733 E12.76095
G1 X53.991 Y64.378 E13.08668
G1 X53.936 Y64.808 E13.09995
G1 X53.917 Y64.898 E13.10276
G1 F1703.9 X53.944 Y65.195 E13.11401
G1 F1312.5 X53.948 Y65.366 E13.12238
G1 F1535.6 X54.324 Y65.077 E13.14223
G1 F2100 X54.586 Y64.779 E13.15437
G1 X54.892 Y64.499 E13.16706
G1 X55.048 Y64.383 E13.17301
G1 X55.397 Y64.163 E13.18563
G1 X55.759 Y63.991 E13.1979
G1 X56.079 Y63.875 E13.20831
G1 X56.284 Y63.823 E13.21478
G1 X56.685 Y63.752 E13.22725
G1 X57.091 Y63.724 E13.2397
G1 X57.486 Y63.746 E13.2518
G1 X57.858 Y63.81 E13.26335
G1 X58.272 Y63.926 E13.27651
G1 X58.639 Y64.077 E13.28865
G1 X58.987 Y64.275 E13.30091
G1 X59.278 Y64.479 E13.31178
G1 X59.469 Y64.641 E13.31944
G1 X59.716 Y64.885 E13.33007
G1 X59.846 Y65.046 E13.3364
G1 X60.08 Y65.368 E13.34858
G1 X60.278 Y65.72 E13.36094
G1 X60.422 Y66.072 E13.37257
G1 X60.489 Y66.286 E13.37944
