;FLAVOR:Marlin
;TIME:3479
;Filament used: 3.14172m
;Layer height: 0.2
;MINX:23.338
;MINY:30.599
;MINZ:0.2
;MAXX:98.195
;MAXY:87.173
;MAXZ:15
;TARGET_MACHINE.NAME:VORON 0
;Generated with Cura_SteamEngine 5.7.2
M104 S265
M105
M109 S265
M82 ;absolute extrusion mode
;START_PRINT EXTRUDER_TEMP=265 BED_TEMP=110
;Nozzle diameter = 0.4
;Filament type = ABS
;Filament name = ABS
;Filament weight = [8.312385791015625]
; M190 S110
; M109 S265
print_start EXTRUDER=265 BED=110 CHAMBER=36
G92 E0
G92 E0
G1 F1800 E-0.75
;LAYER_COUNT:75
;LAYER:0
M107
G1 F600 Z1.2
G0 F7200 X24.914 Y31.239 Z1.2
;TYPE:SKIRT
G1 F600 Z0.2
G1 F720 E0
G1 F1200 X25.408 Y30.955 E0.01744
G1 X25.939 Y30.754 E0.03481
G1 X26.485 Y30.639 E0.05188
G1 X26.844 Y30.61 E0.0629
G1 X27.169 Y30.601 E0.07285
G1 X53.843 Y30.599 E0.88906
G1 X54.546 Y30.609 E0.91057
G1 X55.136 Y30.667 E0.92871
G1 X55.544 Y30.765 E0.94155
G1 X56.387 Y31.023 E0.96853
G1 X57.339 Y31.33 E0.99914
G1 X59.959 Y32.095 E1.08265
G1 X62.608 Y32.787 E1.16643
G1 X65.242 Y33.397 E1.24916
G1 X67.938 Y33.939 E1.33331
G1 X70.604 Y34.399 E1.41609
G1 X73.344 Y34.792 E1.50079
G1 X76.016 Y35.098 E1.58309
G1 X78.724 Y35.331 E1.66626
G1 X81.451 Y35.488 E1.74984
G1 X84.201 Y35.569 E1.83403
G1 X90.447 Y35.564 E2.02515
G1 X91.148 Y35.574 E2.0466
G1 X91.745 Y35.634 E2.06496
G1 X92.295 Y35.78 E2.08237
G1 X92.758 Y35.982 E2.09783
G1 X93.284 Y36.316 E2.1169
G1 X93.593 Y36.58 E2.12933
G1 X94.042 Y37.013 E2.14842
G1 X96.69 Y39.668 E2.26316
G1 X97.19 Y40.185 E2.28517
G1 X97.55 Y40.627 E2.30261
G1 X97.833 Y41.119 E2.31998
G1 X98.037 Y41.65 E2.33739
G1 X98.154 Y42.199 E2.35456
G1 X98.184 Y42.595 E2.36671
G1 X98.195 Y43.167 E2.38422
G1 X98.159 Y82.487 E3.58739
G1 X98.148 Y83.214 E3.60963
G1 X98.087 Y83.812 E3.62803
G1 X97.941 Y84.361 E3.64541
G1 X97.739 Y84.825 E3.6609
G1 X97.437 Y85.306 E3.67828
G1 X97.104 Y85.695 E3.69394
G1 X96.867 Y85.934 E3.70424
G1 X96.403 Y86.328 E3.72287
G1 X96.146 Y86.511 E3.73252
G1 X95.657 Y86.799 E3.74989
G1 X95.127 Y87.007 E3.76731
G1 X94.577 Y87.129 E3.78455
G1 X94.154 Y87.163 E3.79753
G1 X93.4 Y87.173 E3.82061
G1 X91.186 Y87.172 E3.88836
G1 X90.468 Y87.159 E3.91033
G1 X90.189 Y87.142 E3.91888
G1 X89.209 Y87.043 E3.94902
G1 X88.212 Y86.93 E3.97973
G1 X85.502 Y86.699 E4.06295
G1 X82.779 Y86.545 E4.14641
G1 X80.024 Y86.466 E4.23074
G1 X77.328 Y86.466 E4.31324
G1 X74.584 Y86.542 E4.39723
G1 X73.859 Y86.58 E4.41945
G1 X73.025 Y86.607 E4.44498
G1 X45.657 Y86.591 E5.28242
G1 X44.96 Y86.58 E5.30375
G1 X44.361 Y86.519 E5.32218
G1 X43.813 Y86.372 E5.33954
G1 X43.349 Y86.17 E5.35502
G1 X42.823 Y85.835 E5.37411
G1 X42.517 Y85.572 E5.38645
G1 X42.064 Y85.135 E5.40571
G1 X40.841 Y83.895 E5.45901
G1 X40.587 Y83.605 E5.4708
G1 X39.754 Y82.528 E5.51247
G1 X38.064 Y80.404 E5.59552
G1 X36.293 Y78.301 E5.67965
G1 X34.481 Y76.272 E5.76289
G1 X32.626 Y74.306 E5.8456
G1 X30.675 Y72.355 E5.93003
G1 X28.71 Y70.494 E6.01284
G1 X26.651 Y68.657 E6.09728
G1 X24.6 Y66.921 E6.1795
G1 X24.2 Y66.517 E6.19689
G1 X23.869 Y66.056 E6.21426
G1 X23.638 Y65.606 E6.22974
G1 X23.458 Y65.065 E6.24719
G1 X23.442 Y64.995 E6.24938
G1 X23.351 Y64.303 E6.27074
G1 X23.339 Y63.869 E6.28402
G1 X23.338 Y34.852 E7.17193
G1 X23.347 Y34.162 E7.19304
G1 X23.406 Y33.565 E7.2114
G1 X23.552 Y33.015 E7.22881
G1 X23.782 Y32.496 E7.24618
G1 X24.092 Y32.018 E7.26361
G1 X24.472 Y31.596 E7.28099
G1 X24.914 Y31.239 E7.29838
G0 F7200 X25.117 Y31.584
G1 F1200 X25.553 Y31.328 E7.31385
G1 X26.024 Y31.145 E7.32931
G1 X26.518 Y31.038 E7.34478
G1 X26.855 Y31.01 E7.35512
G1 X27.169 Y31.001 E7.36473
G1 X53.837 Y30.999 E8.18076
G1 X54.54 Y31.009 E8.20227
G1 X55.043 Y31.056 E8.21773
G1 X55.427 Y31.148 E8.22981
G1 X56.264 Y31.404 E8.2566
G1 X57.216 Y31.711 E8.2872
G1 X59.854 Y32.481 E8.37129
G1 X62.518 Y33.177 E8.45555
G1 X65.152 Y33.787 E8.53828
G1 X67.863 Y34.332 E8.62289
G1 X70.547 Y34.795 E8.70623
G1 X73.287 Y35.188 E8.79093
G1 X75.982 Y35.497 E8.87394
G1 X78.69 Y35.729 E8.95711
G1 X81.439 Y35.888 E9.04136
G1 X84.189 Y35.969 E9.12555
G1 X90.441 Y35.964 E9.31685
G1 X91.142 Y35.974 E9.33831
G1 X91.645 Y36.021 E9.35377
G1 X92.135 Y36.147 E9.36925
G1 X92.598 Y36.349 E9.3847
G1 X93.025 Y36.621 E9.4002
G1 X93.315 Y36.868 E9.41185
G1 X93.759 Y37.296 E9.43072
G1 X96.403 Y39.946 E9.54527
G1 X96.882 Y40.44 E9.56632
G1 X97.205 Y40.83 E9.58182
G1 X97.461 Y41.266 E9.59729
G1 X97.646 Y41.736 E9.61275
G1 X97.755 Y42.23 E9.62823
G1 X97.784 Y42.603 E9.63967
G1 X97.795 Y43.167 E9.65694
G1 X97.759 Y82.481 E10.85992
G1 X97.748 Y83.208 E10.88217
G1 X97.7 Y83.712 E10.89766
G1 X97.574 Y84.201 E10.91311
G1 X97.372 Y84.665 E10.92859
G1 X97.1 Y85.091 E10.94406
G1 X96.82 Y85.413 E10.95712
G1 X96.583 Y85.652 E10.96742
G1 X96.171 Y86.003 E10.98398
G1 X95.94 Y86.168 E10.99266
G1 X95.507 Y86.428 E11.00812
G1 X95.038 Y86.617 E11.02359
G1 X94.545 Y86.73 E11.03907
G1 X94.122 Y86.764 E11.05205
G1 X93.4 Y86.773 E11.07415
G1 X91.193 Y86.772 E11.14168
G1 X90.492 Y86.76 E11.16313
G1 X90.229 Y86.744 E11.1712
G1 X89.254 Y86.646 E11.20118
G1 X88.246 Y86.531 E11.23223
G1 X85.536 Y86.301 E11.31545
G1 X82.79 Y86.145 E11.39961
G1 X80.035 Y86.066 E11.48395
G1 X77.317 Y86.066 E11.56711
G1 X74.573 Y86.143 E11.65111
G1 X73.846 Y86.18 E11.67339
G1 X73.025 Y86.207 E11.69852
G1 X45.663 Y86.191 E12.53578
G1 X44.966 Y86.18 E12.55711
G1 X44.462 Y86.132 E12.5726
G1 X43.973 Y86.005 E12.58806
G1 X43.509 Y85.803 E12.60355
G1 X43.083 Y85.531 E12.61901
G1 X42.795 Y85.284 E12.63062
G1 X42.349 Y84.854 E12.64958
G1 X41.142 Y83.631 E12.70216
G1 X40.888 Y83.341 E12.71396
G1 X40.07 Y82.283 E12.75488
G1 X38.37 Y80.146 E12.83844
G1 X36.599 Y78.043 E12.92256
G1 X34.772 Y75.997 E13.0065
G1 X32.917 Y74.031 E13.08921
G1 X30.958 Y72.072 E13.17398
G1 X28.985 Y70.204 E13.25712
G1 X26.917 Y68.359 E13.34192
G1 X24.882 Y66.637 E13.4235
G1 X24.523 Y66.281 E13.43897
G1 X24.225 Y65.873 E13.45443
G1 X23.994 Y65.423 E13.4699
G1 X23.838 Y64.942 E13.48538
G1 X23.751 Y64.292 E13.50544
G1 X23.739 Y63.869 E13.51839
G1 X23.738 Y34.857 E14.40614
G1 X23.747 Y34.167 E14.42726
G1 X23.794 Y33.664 E14.44271
G1 X23.919 Y33.174 E14.45819
G1 X24.12 Y32.71 E14.47366
G1 X24.391 Y32.283 E14.48914
G1 X24.726 Y31.905 E14.50459
G1 X25.117 Y31.584 E14.52007
G1 F1800 E13.77007
G1 F600 Z1.2
;MESH:TH_Side_Clip_x4.stl
G0 F7200 X48.059 Y40.81 Z1.2
;TYPE:WALL-INNER
G1 F600 Z0.2
G1 F720 E14.52007
G1 F1200 X47.985 Y41.042 E14.52752
G1 X47.936 Y41.265 E14.53451
G1 X47.898 Y41.651 E14.54638
G1 X47.904 Y41.908 E14.55424
G1 X47.938 Y42.155 E14.56187
G1 X48.003 Y42.43 E14.57052
G1 X48.076 Y42.632 E14.57709
G1 X48.167 Y42.83 E14.58376
G1 X48.3 Y43.061 E14.59192
G1 X48.445 Y43.258 E14.5994
G1 X48.604 Y43.438 E14.60675
G1 X48.776 Y43.599 E14.61396
G1 X48.939 Y43.726 E14.62028
G1 X49.266 Y43.925 E14.63199
G1 X49.506 Y44.031 E14.64002
G1 X49.734 Y44.107 E14.64738
G1 X50.028 Y44.169 E14.65657
G1 X50.204 Y44.189 E14.66199
G1 X50.438 Y44.196 E14.66915
G1 X50.739 Y44.172 E14.67839
G1 X50.982 Y44.126 E14.68596
G1 X51.154 Y44.078 E14.69143
G1 X51.385 Y43.991 E14.69898
G1 X51.59 Y43.894 E14.70592
G1 X51.807 Y43.76 E14.71372
G1 X51.991 Y43.623 E14.72074
G1 X52.273 Y43.349 E14.73277
G1 X52.432 Y43.151 E14.74054
G1 X52.596 Y42.891 E14.74995
G1 X52.672 Y42.735 E14.75526
G1 F1197 X52.76 Y42.521 E14.76236
G1 F1148.3 X52.795 Y42.468 E14.76439
G1 F997.9 X52.908 Y42.231 E14.77405
G1 F932 X52.945 Y41.813 E14.79058
G1 F956.2 X52.943 Y41.561 E14.80026
G1 F932 X52.905 Y41.182 E14.81527
G1 F1004.2 X52.787 Y40.929 E14.82547
G1 F1159.4 X52.757 Y40.882 E14.82724
G1 F1200 X52.667 Y40.654 E14.83474
G1 X52.562 Y40.453 E14.84168
G1 X52.47 Y40.301 E14.84712
G1 X52.323 Y40.101 E14.85471
G1 X52.148 Y39.914 E14.86255
G1 X51.981 Y39.765 E14.8694
G1 X51.79 Y39.623 E14.87668
G1 X51.585 Y39.497 E14.88404
G1 X51.306 Y39.369 E14.89344
G1 X51.089 Y39.295 E14.90045
G1 X50.872 Y39.24 E14.9073
G1 X50.624 Y39.209 E14.91495
G1 X50.353 Y39.197 E14.92325
G1 X50.045 Y39.221 E14.9327
G1 X49.797 Y39.268 E14.94043
G1 X49.55 Y39.346 E14.94835
G1 X49.346 Y39.429 E14.95509
G1 X49.137 Y39.536 E14.96228
G1 X48.92 Y39.678 E14.97021
G1 X48.735 Y39.83 E14.97754
G1 X48.563 Y39.999 E14.98492
G1 X48.409 Y40.181 E14.99221
G1 X48.27 Y40.386 E14.99979
G1 X48.166 Y40.567 E15.00618
G1 X48.059 Y40.81 E15.0143
G0 F7200 X47.787 Y40.693
G0 X49.203 Y38.622
G1 F1200 X49.039 Y38.69 E15.01974
G1 X48.765 Y38.828 E15.02912
G1 X48.632 Y38.907 E15.03386
G1 X48.35 Y39.108 E15.04445
G1 X48.134 Y39.298 E15.05326
G1 X47.909 Y39.53 E15.06314
G1 X47.702 Y39.794 E15.07341
G1 X47.47 Y40.172 E15.08698
G1 X47.322 Y40.499 E15.09796
G1 X47.219 Y40.81 E15.10799
G1 X47.153 Y41.101 E15.11712
G1 X47.129 Y41.264 E15.12216
G1 X47.101 Y41.58 E15.13187
G1 X47.097 Y41.768 E15.13762
G1 X47.105 Y41.944 E15.14301
G1 X47.147 Y42.275 E15.15322
G1 X47.246 Y42.687 E15.16619
G1 X47.336 Y42.934 E15.17423
G1 X47.483 Y43.248 E15.18484
G1 X47.634 Y43.505 E15.19396
G1 X47.84 Y43.782 E15.20453
G1 X48.056 Y44.021 E15.21438
G1 X48.26 Y44.21 E15.22289
G1 X48.468 Y44.373 E15.23098
G1 X48.859 Y44.614 E15.24503
G1 X49.035 Y44.702 E15.25105
G1 X49.301 Y44.808 E15.25982
G1 X49.486 Y44.868 E15.26577
G1 X49.815 Y44.944 E15.2761
G1 X50.113 Y44.983 E15.2853
G1 X50.42 Y44.996 E15.2947
G1 X50.574 Y44.991 E15.29941
G1 X50.876 Y44.96 E15.3087
G1 X51.197 Y44.897 E15.31871
G1 X51.369 Y44.849 E15.32418
G1 X51.679 Y44.735 E15.33428
G1 X51.934 Y44.616 E15.34289
G1 X52.094 Y44.527 E15.3485
G1 X52.326 Y44.373 E15.35702
G1 X52.474 Y44.261 E15.3627
G1 X52.696 Y44.056 E15.37194
G1 X52.696 Y52.132 E15.61906
G1 X42.315 Y62.509 E16.0682
G1 X42.271 Y62.54 E16.06985
G1 X42.179 Y62.582 E16.07295
G1 X42.035 Y62.596 E16.07737
G1 X28.736 Y62.596 E16.48431
G1 X28.737 Y35.597 E17.31046
G1 X52.696 Y35.596 E18.04359
G1 X52.696 Y39.333 E18.15794
G1 X52.509 Y39.163 E18.16568
G1 X52.157 Y38.907 E18.17899
G1 X51.853 Y38.736 E18.18967
G1 X51.569 Y38.614 E18.19913
G1 X51.291 Y38.521 E18.2081
G1 X51.01 Y38.452 E18.21695
G1 X50.765 Y38.419 E18.22451
G1 X50.491 Y38.398 E18.23292
G1 X50.291 Y38.399 E18.23904
G1 X49.85 Y38.441 E18.2526
G1 X49.477 Y38.527 E18.26431
G1 X49.203 Y38.622 E18.27318
G0 F7200 X47.932 Y40.506
G0 X47.692 Y41.271
G0 X47.671 Y41.959
G0 X47.857 Y42.728
G0 X48.255 Y43.405
G0 X48.838 Y43.952
G0 X49.187 Y44.131
G0 X50.429 Y44.596
G1 F1200 X50.159 Y44.586 E18.28145
G1 X49.895 Y44.552 E18.2896
G1 X49.61 Y44.487 E18.29854
G1 X49.352 Y44.4 E18.30687
G1 X49.063 Y44.27 E18.31657
G1 X48.708 Y44.053 E18.3293
G1 X48.518 Y43.905 E18.33667
G1 X48.319 Y43.719 E18.34501
G1 X48.106 Y43.474 E18.35494
G1 X47.967 Y43.283 E18.36217
G1 X47.823 Y43.036 E18.37092
G1 X47.706 Y42.783 E18.37945
G1 X47.597 Y42.463 E18.38979
G1 X47.543 Y42.215 E18.39756
G1 X47.504 Y41.926 E18.40648
G1 X47.499 Y41.615 E18.416
G1 X47.545 Y41.183 E18.42929
G1 X47.602 Y40.926 E18.43735
G1 X47.69 Y40.654 E18.44609
G1 X47.818 Y40.37 E18.45563
G1 X47.936 Y40.166 E18.46284
G1 X48.101 Y39.926 E18.47175
G1 X48.217 Y39.785 E18.47734
G1 X48.416 Y39.58 E18.48608
G1 X48.609 Y39.413 E18.49389
G1 X48.951 Y39.182 E18.50652
G1 X49.193 Y39.06 E18.51481
G1 X49.423 Y38.967 E18.5224
G1 X49.715 Y38.877 E18.53175
G1 X49.919 Y38.835 E18.53812
G1 X50.4 Y38.796 E18.55289
G1 X50.714 Y38.816 E18.56252
G1 X50.941 Y38.846 E18.56953
G1 X51.266 Y38.931 E18.5798
G1 X51.521 Y39.024 E18.58811
G1 X51.791 Y39.154 E18.59728
G1 X52.026 Y39.3 E18.60575
G1 X52.245 Y39.464 E18.61412
G1 X52.435 Y39.635 E18.62194
G1 X52.642 Y39.86 E18.63129
G1 X52.813 Y40.094 E18.64016
G1 X52.904 Y40.245 E18.64556
G1 X53.023 Y40.471 E18.65337
G1 X53.096 Y40.648 E18.65923
G1 X53.096 Y35.196 E18.82606
G1 X28.337 Y35.197 E19.58367
G1 X28.336 Y62.996 E20.4343
G1 X42.144 Y62.991 E20.85681
G1 X42.254 Y62.975 E20.86022
G1 X42.331 Y62.952 E20.86267
G1 X42.452 Y62.898 E20.86673
G1 X42.571 Y62.817 E20.87113
G1 X53.096 Y52.297 E21.32648
G1 X53.096 Y42.754 E21.61849
G1 X53.032 Y42.911 E21.62368
G1 X52.898 Y43.168 E21.63255
G1 X52.749 Y43.396 E21.64088
G1 X52.555 Y43.631 E21.65021
G1 X52.232 Y43.942 E21.66393
G1 X52.084 Y44.054 E21.66961
G1 X51.877 Y44.192 E21.67722
G1 X51.532 Y44.363 E21.689
G1 X51.262 Y44.464 E21.69782
G1 X51.089 Y44.512 E21.70332
G1 X50.808 Y44.566 E21.71207
G1 X50.429 Y44.596 E21.72371
G1 F1800 E20.97371
G0 F7200 X52.514 Y44.46
G0 X52.532 Y52.064
G0 X42.638 Y62.897
G0 X42.827 Y63.125
G1 F720 E21.72371
G1 F1200 X42.74 Y63.19 E21.72703
G1 X42.546 Y63.297 E21.73381
G1 X42.433 Y63.341 E21.73752
G1 X42.336 Y63.367 E21.74059
G1 X42.182 Y63.39 E21.74536
G1 X27.936 Y63.396 E22.18128
G1 X27.937 Y34.797 E23.05639
G1 X53.496 Y34.796 E23.83847
G1 X53.496 Y40.746 E24.02054
G1 F1034.5 X53.432 Y41.143 E24.03481
G1 F933.9 X53.446 Y41.736 E24.05814
G1 X53.432 Y42.276 E24.07938
G1 F1032.3 X53.495 Y42.661 E24.09325
G1 F1197 X53.496 Y52.463 E24.39394
G1 F1200 X42.827 Y63.125 E24.85548
G1 F1800 E24.10548
G1 F600 Z1.2
G0 F7200 X42.447 Y62.666 Z1.2
G0 X35.523 Y53.401
G1 F600 Z0.2
G1 F720 E24.85548
G1 F1200 X35.335 Y53.397 E24.86123
G1 X35.151 Y53.405 E24.86687
G1 X34.816 Y53.448 E24.8772
G1 X34.516 Y53.517 E24.88662
G1 X34.245 Y53.603 E24.89532
G1 X33.925 Y53.742 E24.906
G1 X33.662 Y53.888 E24.9152
G1 X33.381 Y54.084 E24.92568
G1 X33.143 Y54.288 E24.93528
G1 X33.036 Y54.394 E24.93989
G1 X32.855 Y54.597 E24.94821
G1 X32.661 Y54.854 E24.95806
G1 X32.487 Y55.141 E24.96833
G1 X32.345 Y55.45 E24.97874
G1 X32.241 Y55.742 E24.98822
G1 X32.192 Y55.914 E24.99369
G1 X32.129 Y56.234 E25.00367
G1 X32.1 Y56.537 E25.01299
G1 X32.096 Y56.752 E25.01957
G1 X32.117 Y57.058 E25.02895
G1 X32.165 Y57.362 E25.03837
G1 X32.243 Y57.669 E25.04806
G1 X32.354 Y57.973 E25.05797
G1 X32.539 Y58.345 E25.07068
G1 X32.635 Y58.505 E25.07639
G1 X32.742 Y58.659 E25.08213
G1 X32.854 Y58.799 E25.08761
G1 X33.051 Y59.015 E25.09656
G1 X33.175 Y59.132 E25.10177
G1 X33.415 Y59.332 E25.11133
G1 X33.556 Y59.435 E25.11668
G1 X33.854 Y59.615 E25.12733
G1 X34.098 Y59.731 E25.1356
G1 X34.431 Y59.853 E25.14645
G1 X34.727 Y59.928 E25.15579
G1 X35.03 Y59.976 E25.16518
G1 X35.336 Y59.996 E25.17456
G1 X35.551 Y59.992 E25.18114
G1 X35.855 Y59.964 E25.19048
G1 X36.153 Y59.908 E25.19976
G1 X36.342 Y59.855 E25.20577
G1 X36.634 Y59.751 E25.21525
G1 X36.8 Y59.68 E25.22078
G1 X37.02 Y59.568 E25.22833
G1 X37.203 Y59.456 E25.2349
G1 X37.447 Y59.28 E25.2441
G1 X37.587 Y59.165 E25.24965
G1 X37.81 Y58.947 E25.25919
G1 X38.008 Y58.715 E25.26852
G1 X38.204 Y58.434 E25.27901
G1 X38.325 Y58.222 E25.28648
G1 X38.43 Y57.999 E25.29402
G1 X38.543 Y57.698 E25.30386
G1 X38.624 Y57.381 E25.31387
G1 X38.672 Y57.1 E25.32259
G1 X38.695 Y56.761 E25.33299
G1 X38.692 Y56.592 E25.33816
G1 X38.668 Y56.28 E25.34773
G1 X38.642 Y56.094 E25.35348
G1 X38.565 Y55.777 E25.36346
G1 X38.41 Y55.353 E25.37728
G1 X38.334 Y55.19 E25.38278
G1 X38.185 Y54.932 E25.3919
G1 X38.043 Y54.724 E25.3996
G1 X37.864 Y54.503 E25.40831
G1 X37.606 Y54.244 E25.41949
G1 X37.378 Y54.057 E25.42852
G1 X37.164 Y53.911 E25.43644
G1 X37.007 Y53.819 E25.44201
G1 X36.638 Y53.639 E25.45457
G1 X36.221 Y53.5 E25.46802
G1 X35.831 Y53.429 E25.48015
G1 X35.523 Y53.401 E25.48962
G0 F7200 X33.692 Y54.555
G0 X33.153 Y55.128
G0 X32.89 Y55.597
G0 X32.692 Y56.26
G0 X32.681 Y57.048
G0 X32.892 Y57.805
G0 X33.309 Y58.471
G0 X33.975 Y59.023
G0 X35.249 Y59.593
G1 F1200 X34.976 Y59.565 E25.49801
G1 X34.797 Y59.534 E25.50357
G1 X34.534 Y59.467 E25.51188
G1 X34.248 Y59.36 E25.52122
G1 X34.029 Y59.255 E25.52865
G1 X33.772 Y59.098 E25.53787
G1 X33.671 Y59.025 E25.54168
G1 X33.343 Y58.741 E25.55496
G1 X33.167 Y58.549 E25.56293
G1 X32.978 Y58.299 E25.57252
G1 X32.85 Y58.081 E25.58025
G1 X32.727 Y57.829 E25.58883
G1 X32.628 Y57.561 E25.59758
G1 X32.559 Y57.293 E25.60604
G1 X32.515 Y57.023 E25.61441
G1 X32.499 Y56.839 E25.62007
G1 X32.506 Y56.452 E25.63191
G1 X32.542 Y56.183 E25.64021
G1 X32.582 Y55.999 E25.64598
G1 X32.721 Y55.584 E25.65937
G1 X32.769 Y55.472 E25.6631
G1 X32.895 Y55.232 E25.67139
G1 X33.06 Y54.982 E25.68056
G1 X33.212 Y54.795 E25.68793
G1 X33.408 Y54.587 E25.69668
G1 X33.618 Y54.406 E25.70516
G1 X33.862 Y54.234 E25.71429
G1 X34.014 Y54.146 E25.71967
G1 X34.371 Y53.983 E25.73168
G1 X34.613 Y53.905 E25.73946
G1 X34.878 Y53.843 E25.74779
G1 X35.168 Y53.804 E25.75674
G1 X35.487 Y53.8 E25.7665
G1 X35.897 Y53.842 E25.77911
G1 X36.126 Y53.888 E25.78626
