;FLAVOR:Marlin
;TIME:3765
;Filament used: 2.78067m
;Layer height: 0.2
;MINX:18.323
;MINY:13.449
;MINZ:0.2
;MAXX:101.717
;MAXY:106.649
;MAXZ:9
;TARGET_MACHINE.NAME:VORON 0
;Generated with Cura_SteamEngine 5.7.2
M104 S265
M105
M109 S265
M82 ;absolute extrusion mode
;START_PRINT EXTRUDER_TEMP=265 BED_TEMP=110
;Nozzle diameter = 0.4
;Filament type = ABS
;Filament name = ABS
;Filament weight = [7.35711689453125]
; M190 S110
; M109 S265
print_start EXTRUDER=265 BED=110 CHAMBER=36
G92 E0
G92 E0
G1 F1800 E-0.75
;LAYER_COUNT:40
;LAYER:0
M107
G1 F600 Z1.2
G0 F7200 X28.183 Y15.536 Z1.2
;TYPE:SKIRT
G1 F600 Z0.2
G1 F720 E0
G1 F1200 X28.463 Y15.042 E0.01738
G1 X28.775 Y14.644 E0.03285
G1 X29.239 Y14.214 E0.05221
G1 X29.66 Y13.933 E0.0677
G1 X30.233 Y13.67 E0.08699
G1 X30.783 Y13.522 E0.10442
G1 X31.334 Y13.46 E0.12138
G1 X31.674 Y13.45 E0.13179
G1 X87.95 Y13.449 E1.8538
G1 X88.651 Y13.459 E1.87525
G1 X89.248 Y13.519 E1.89361
G1 X89.798 Y13.665 E1.91102
G1 X90.261 Y13.867 E1.92648
G1 X90.743 Y14.169 E1.94389
G1 X91.216 Y14.588 E1.96322
G1 X91.571 Y15.03 E1.98057
G1 X91.855 Y15.528 E1.99811
G1 X92.068 Y16.097 E2.0167
G1 X92.746 Y18.542 E2.09434
G1 X93.538 Y21.12 E2.17686
G1 X94.418 Y23.721 E2.26088
G1 X95.357 Y26.259 E2.34369
G1 X96.384 Y28.809 E2.42781
G1 X97.474 Y31.31 E2.51129
G1 X98.644 Y33.798 E2.59542
G1 X99.86 Y36.206 E2.67796
G1 X100.953 Y38.263 E2.74924
G1 X101.119 Y38.617 E2.7612
G1 X101.245 Y38.924 E2.77136
G1 X101.335 Y39.179 E2.77963
G1 X101.431 Y39.5 E2.78989
G1 X101.577 Y40.091 E2.80851
G1 X101.657 Y40.554 E2.82289
G1 X101.696 Y40.925 E2.83431
G1 X101.716 Y41.312 E2.84616
G1 X101.714 Y41.688 E2.85767
G1 X101.694 Y42.053 E2.86885
G1 X101.648 Y42.469 E2.88166
G1 X101.573 Y42.897 E2.89496
G1 X101.46 Y43.372 E2.9099
G1 X101.274 Y44.063 E2.93179
G1 X100.932 Y45.253 E2.96968
G1 X100.271 Y47.827 E3.051
G1 X99.653 Y50.556 E3.13662
G1 X99.142 Y53.142 E3.21728
G1 X98.674 Y55.92 E3.30348
G1 X98.313 Y58.519 E3.38377
G1 X98.004 Y61.312 E3.46976
G1 X97.782 Y64.005 E3.55244
G1 X97.639 Y66.698 E3.63496
G1 X97.569 Y69.451 E3.71923
G1 X97.578 Y72.183 E3.80283
G1 X97.662 Y74.898 E3.88594
G1 X97.823 Y77.591 E3.9685
G1 X98.066 Y80.353 E4.05334
G1 X98.377 Y83.013 E4.13529
G1 X98.775 Y85.756 E4.2201
G1 X99.237 Y88.398 E4.30217
G1 X99.784 Y91.087 E4.38614
G1 X100.4 Y93.738 E4.46942
G1 X101.257 Y96.944 E4.57096
G1 X101.46 Y97.659 E4.59371
G1 X101.562 Y98.069 E4.60663
G1 X101.628 Y98.422 E4.61762
G1 X101.671 Y98.742 E4.6275
G1 X101.699 Y99.045 E4.63681
G1 X101.717 Y99.465 E4.64968
G1 X101.711 Y99.856 E4.66164
G1 X101.682 Y100.265 E4.67419
G1 X101.637 Y100.623 E4.68523
G1 X101.559 Y101.047 E4.69842
G1 X101.467 Y101.419 E4.71015
G1 X101.348 Y101.808 E4.72259
G1 X101.221 Y102.154 E4.73387
G1 X101.026 Y102.608 E4.74899
G1 X100.816 Y103.017 E4.76306
G1 X100.585 Y103.396 E4.77664
G1 X100.388 Y103.682 E4.78727
G1 X100.155 Y103.989 E4.79906
G1 X99.948 Y104.235 E4.8089
G1 X99.746 Y104.454 E4.81802
G1 X99.523 Y104.673 E4.82758
G1 X99.167 Y104.993 E4.84223
G1 X98.84 Y105.252 E4.85499
G1 X98.494 Y105.491 E4.86786
G1 X98.213 Y105.665 E4.87797
G1 X97.88 Y105.849 E4.88961
G1 X97.529 Y106.017 E4.90152
G1 X97.122 Y106.184 E4.91498
G1 X96.758 Y106.31 E4.92677
G1 X96.363 Y106.422 E4.93933
G1 X96.027 Y106.499 E4.94988
G1 X95.68 Y106.56 E4.96066
G1 X95.305 Y106.605 E4.97222
G1 X94.656 Y106.64 E4.99211
G1 X93.968 Y106.649 E5.01316
G1 X26.066 Y106.649 E7.09092
G1 X25.261 Y106.637 E7.11555
G1 X24.769 Y106.608 E7.13063
G1 X24.43 Y106.568 E7.14108
G1 X24.021 Y106.499 E7.15377
G1 X23.649 Y106.415 E7.16544
G1 X23.253 Y106.301 E7.17805
G1 X22.9 Y106.177 E7.1895
G1 X22.527 Y106.024 E7.20183
G1 X22.224 Y105.881 E7.21209
G1 X21.868 Y105.689 E7.22446
G1 X21.534 Y105.483 E7.23647
G1 X21.187 Y105.241 E7.24942
G1 X20.899 Y105.016 E7.2606
G1 X20.58 Y104.737 E7.27357
G1 X20.288 Y104.448 E7.28614
G1 X20.013 Y104.142 E7.29873
G1 X19.827 Y103.917 E7.30766
G1 X19.586 Y103.597 E7.31992
G1 X19.316 Y103.177 E7.3352
G1 X19.115 Y102.809 E7.34803
G1 X18.976 Y102.524 E7.35773
G1 X18.807 Y102.126 E7.37096
G1 X18.689 Y101.797 E7.38166
G1 X18.563 Y101.378 E7.39504
G1 X18.481 Y101.042 E7.40563
G1 X18.405 Y100.632 E7.41839
G1 X18.357 Y100.248 E7.43023
G1 X18.328 Y99.827 E7.44314
G1 X18.323 Y99.441 E7.45495
G1 X18.342 Y99.028 E7.4676
G1 X18.38 Y98.653 E7.47914
G1 X18.444 Y98.245 E7.49177
G1 X18.52 Y97.889 E7.50291
G1 X18.755 Y97.012 E7.5307
G1 X19.258 Y95.215 E7.5878
G1 X19.913 Y92.593 E7.67049
G1 X20.511 Y89.875 E7.75565
G1 X21.013 Y87.241 E7.8377
G1 X21.448 Y84.544 E7.92129
G1 X21.807 Y81.843 E8.00467
G1 X22.09 Y79.121 E8.08841
G1 X22.295 Y76.388 E8.17227
G1 X22.422 Y73.681 E8.2552
G1 X22.473 Y70.969 E8.3382
G1 X22.446 Y68.233 E8.42192
G1 X22.342 Y65.494 E8.50579
G1 X22.164 Y62.792 E8.58865
G1 X21.905 Y60.067 E8.67241
G1 X21.571 Y57.367 E8.75566
G1 X21.162 Y54.678 E8.83888
G1 X20.671 Y51.965 E8.92325
G1 X20.119 Y49.347 E9.00512
G1 X19.481 Y46.689 E9.08876
G1 X18.557 Y43.277 E9.19693
G1 X18.441 Y42.757 E9.21323
G1 X18.389 Y42.429 E9.22339
G1 X18.348 Y42.06 E9.23475
G1 X18.326 Y41.672 E9.24665
G1 X18.325 Y41.285 E9.25849
G1 X18.349 Y40.866 E9.27133
G1 X18.396 Y40.455 E9.28399
G1 X18.449 Y40.134 E9.29394
G1 X18.514 Y39.83 E9.30346
G1 X18.611 Y39.475 E9.31472
G1 X18.774 Y38.98 E9.33066
G1 X18.966 Y38.509 E9.34623
G1 X19.194 Y38.055 E9.36177
G1 X19.841 Y36.849 E9.40365
G1 X21.107 Y34.385 E9.48842
G1 X22.271 Y31.952 E9.57095
G1 X23.39 Y29.433 E9.65529
G1 X24.436 Y26.882 E9.73966
G1 X25.386 Y24.373 E9.82175
G1 X26.28 Y21.789 E9.90542
G1 X27.094 Y19.205 E9.98831
G1 X27.694 Y17.114 E10.05488
G1 X27.984 Y16.069 E10.08806
G1 X28.183 Y15.536 E10.10547
G0 F7200 X28.533 Y15.73
G1 F1200 X28.778 Y15.289 E10.12091
G1 X29.09 Y14.891 E10.13638
G1 X29.461 Y14.547 E10.15187
G1 X29.882 Y14.266 E10.16735
G1 X30.341 Y14.055 E10.18281
G1 X30.828 Y13.919 E10.19828
G1 X31.346 Y13.86 E10.21424
G1 X31.674 Y13.85 E10.22428
G1 X87.944 Y13.849 E11.9461
G1 X88.645 Y13.859 E11.96756
G1 X89.148 Y13.906 E11.98301
G1 X89.638 Y14.032 E11.9985
G1 X90.101 Y14.234 E12.01395
G1 X90.528 Y14.506 E12.02944
G1 X90.906 Y14.841 E12.0449
G1 X91.226 Y15.232 E12.06036
G1 X91.481 Y15.669 E12.07584
G1 X91.683 Y16.204 E12.09334
G1 X92.364 Y18.659 E12.1713
G1 X93.159 Y21.248 E12.25417
G1 X94.043 Y23.86 E12.33855
G1 X94.986 Y26.408 E12.42168
G1 X96.017 Y28.969 E12.50616
G1 X97.107 Y31.47 E12.58964
G1 X98.287 Y33.978 E12.67446
G1 X99.507 Y36.394 E12.75727
G1 X100.591 Y38.433 E12.82794
G1 X100.749 Y38.769 E12.8393
G1 X100.868 Y39.058 E12.84886
G1 X100.952 Y39.294 E12.85653
G1 X101.043 Y39.596 E12.86618
G1 X101.183 Y40.16 E12.88396
G1 X101.259 Y40.596 E12.8975
G1 X101.298 Y40.967 E12.90892
G1 X101.316 Y41.311 E12.91946
G1 X101.315 Y41.666 E12.93032
G1 X101.296 Y42.009 E12.94083
G1 X101.25 Y42.425 E12.95364
G1 X101.184 Y42.805 E12.96544
G1 X101.074 Y43.268 E12.98
G1 X100.89 Y43.953 E13.00171
G1 X100.548 Y45.143 E13.03959
G1 X99.884 Y47.727 E13.12123
G1 X99.263 Y50.468 E13.20723
G1 X98.75 Y53.064 E13.2882
G1 X98.28 Y55.854 E13.37478
G1 X97.915 Y58.475 E13.45575
G1 X97.606 Y61.268 E13.54174
G1 X97.384 Y63.972 E13.62475
G1 X97.239 Y66.688 E13.70798
G1 X97.169 Y69.441 E13.79225
G1 X97.178 Y72.195 E13.87652
G1 X97.262 Y74.91 E13.95964
G1 X97.425 Y77.626 E14.04289
G1 X97.669 Y80.399 E14.12807
G1 X97.981 Y83.07 E14.21036
G1 X98.381 Y85.825 E14.29554
G1 X98.845 Y88.478 E14.37796
G1 X99.394 Y91.178 E14.46227
G1 X100.011 Y93.829 E14.54555
G1 X100.872 Y97.054 E14.64769
G1 X101.072 Y97.756 E14.67003
G1 X101.169 Y98.143 E14.68224
G1 X101.232 Y98.476 E14.69261
G1 X101.273 Y98.778 E14.70193
G1 X101.299 Y99.063 E14.71069
G1 X101.317 Y99.46 E14.72285
G1 X101.312 Y99.828 E14.73411
G1 X101.285 Y100.215 E14.74598
G1 X101.24 Y100.573 E14.75702
G1 X101.17 Y100.952 E14.76881
G1 X101.084 Y101.303 E14.77987
G1 X100.972 Y101.671 E14.79164
G1 X100.853 Y101.997 E14.80226
G1 X100.67 Y102.425 E14.81651
G1 X100.46 Y102.834 E14.83057
G1 X100.255 Y103.17 E14.84262
G1 X100.07 Y103.44 E14.85263
G1 X99.848 Y103.732 E14.86386
G1 X99.654 Y103.964 E14.87311
G1 X99.465 Y104.169 E14.88164
G1 X99.255 Y104.376 E14.89067
G1 X98.919 Y104.679 E14.90451
G1 X98.592 Y104.938 E14.91728
G1 X98.283 Y105.151 E14.92876
G1 X98.019 Y105.315 E14.93827
G1 X97.707 Y105.488 E14.94919
G1 X97.376 Y105.647 E14.96042
G1 X96.991 Y105.806 E14.97317
G1 X96.648 Y105.925 E14.98428
G1 X96.273 Y106.032 E14.99621
G1 X95.957 Y106.105 E15.00613
G1 X95.632 Y106.163 E15.01624
G1 X95.257 Y106.208 E15.02779
G1 X94.651 Y106.24 E15.04636
G1 X93.963 Y106.249 E15.06742
G1 X26.072 Y106.249 E17.14483
G1 X25.284 Y106.238 E17.16895
G1 X24.815 Y106.211 E17.18332
G1 X24.496 Y106.174 E17.19315
G1 X24.109 Y106.109 E17.20516
G1 X23.759 Y106.03 E17.21614
G1 X23.385 Y105.923 E17.22804
G1 X23.052 Y105.807 E17.23883
G1 X22.698 Y105.662 E17.25054
G1 X22.395 Y105.519 E17.26079
G1 X22.077 Y105.348 E17.27184
G1 X21.763 Y105.155 E17.28312
G1 X21.433 Y104.925 E17.29542
G1 X21.162 Y104.714 E17.30593
G1 X20.861 Y104.452 E17.31814
G1 X20.585 Y104.18 E17.33
G1 X20.321 Y103.887 E17.34207
G1 X20.146 Y103.676 E17.35046
G1 X19.922 Y103.38 E17.36182
G1 X19.667 Y102.985 E17.3762
G1 X19.475 Y102.634 E17.38845
G1 X19.336 Y102.349 E17.39815
G1 X19.184 Y101.991 E17.41005
G1 X19.066 Y101.662 E17.42074
G1 X18.952 Y101.283 E17.43285
G1 X18.87 Y100.947 E17.44344
G1 X18.802 Y100.582 E17.4548
G1 X18.756 Y100.22 E17.46596
G1 X18.728 Y99.821 E17.4782
G1 X18.723 Y99.458 E17.48931
G1 X18.74 Y99.067 E17.50129
G1 X18.775 Y98.714 E17.51214
G1 X18.835 Y98.328 E17.5241
G1 X18.906 Y97.993 E17.53457
G1 X19.14 Y97.12 E17.56223
G1 X19.643 Y95.323 E17.61933
G1 X20.304 Y92.679 E17.70273
G1 X20.902 Y89.961 E17.78788
G1 X21.406 Y87.316 E17.87027
G1 X21.845 Y84.597 E17.95455
G1 X22.204 Y81.896 E18.03793
G1 X22.488 Y79.162 E18.12204
G1 X22.694 Y76.418 E18.20624
G1 X22.822 Y73.7 E18.2895
G1 X22.873 Y70.976 E18.37287
G1 X22.846 Y68.229 E18.45693
G1 X22.742 Y65.479 E18.54113
G1 X22.563 Y62.766 E18.62433
G1 X22.303 Y60.029 E18.70846
G1 X21.968 Y57.318 E18.79204
G1 X21.556 Y54.607 E18.87595
G1 X21.064 Y51.894 E18.96032
G1 X20.508 Y49.254 E19.04288
G1 X19.87 Y46.596 E19.12652
G1 X18.947 Y43.19 E19.2345
G1 X18.836 Y42.694 E19.25005
G1 X18.787 Y42.385 E19.25962
G1 X18.746 Y42.016 E19.27099
G1 X18.726 Y41.671 E19.28156
G1 X18.725 Y41.284 E19.2934
G1 X18.746 Y40.912 E19.3048
G1 X18.791 Y40.519 E19.31691
G1 X18.84 Y40.217 E19.32627
G1 X18.9 Y39.935 E19.33509
G1 X18.991 Y39.6 E19.34571
G1 X19.154 Y39.105 E19.36166
G1 X19.324 Y38.688 E19.37544
G1 X19.546 Y38.244 E19.39063
G1 X20.197 Y37.032 E19.43273
G1 X21.463 Y34.568 E19.51749
G1 X22.632 Y32.125 E19.60037
G1 X23.756 Y29.595 E19.68508
G1 X24.806 Y27.034 E19.76977
G1 X25.76 Y24.515 E19.8522
G1 X26.662 Y21.909 E19.93658
G1 X27.475 Y19.325 E20.01947
G1 X28.078 Y17.224 E20.08635
G1 X28.36 Y16.206 E20.11868
G1 X28.533 Y15.73 E20.13417
G1 F1800 E19.38417
G1 F600 Z1.2
;MESH:RPi_mount_adapter_higher.stl
G0 F7200 X26.818 Y39.477 Z1.2
;TYPE:WALL-INNER
G1 F600 Z0.2
G1 F720 E20.13417
G1 F1200 X26.55 Y39.312 E20.1438
G1 X26.214 Y39.163 E20.15505
G1 F1124.1 X25.739 Y39.022 E20.17124
G1 F1081.1 X25.442 Y39.013 E20.18133
G1 F1116.3 X25.036 Y39.042 E20.19472
G1 F1124.1 X24.654 Y39.132 E20.20754
G1 F1121.5 X24.266 Y39.294 E20.2213
G1 X23.941 Y39.502 E20.23394
G1 F1126.8 X23.686 Y39.719 E20.24485
G1 F1124.1 X23.419 Y40.029 E20.25821
G1 X23.215 Y40.362 E20.27097
G1 X23.076 Y40.696 E20.28279
G1 X22.979 Y41.097 E20.29626
G1 F1118.9 X22.959 Y41.34 E20.30426
G1 F1116.3 X22.956 Y41.519 E20.31015
G1 F1124.1 X22.985 Y41.878 E20.32192
G1 F1121.5 X23.055 Y42.171 E20.33178
G1 F1118.9 X23.09 Y42.276 E20.33541
G1 F1121.5 X23.215 Y42.568 E20.34581
G1 X23.416 Y42.906 E20.35869
G1 X23.639 Y43.17 E20.37
G1 X23.708 Y43.238 E20.37318
G1 F1118.9 X24.01 Y43.485 E20.38598
G1 X24.26 Y43.637 E20.39558
G1 F1116.3 X24.511 Y43.752 E20.40466
G1 F1118.9 X24.648 Y43.804 E20.40947
G1 F1126.8 X25.032 Y43.896 E20.42234
G1 F1113.7 X25.467 Y43.923 E20.43671
G1 F1073.8 X25.76 Y43.911 E20.44674
G1 F1118.9 X26.208 Y43.774 E20.46211
G1 F1200 X26.476 Y43.663 E20.47099
G1 X26.831 Y43.451 E20.48364
G1 X27.128 Y43.205 E20.49544
G1 X27.367 Y42.923 E20.50675
G1 X27.42 Y42.848 E20.50956
G1 X27.593 Y42.553 E20.52003
G1 X27.733 Y42.215 E20.53122
G1 X27.821 Y41.85 E20.54271
G1 X27.848 Y41.46 E20.55467
G1 X27.821 Y41.067 E20.56673
G1 X27.734 Y40.722 E20.57761
G1 X27.595 Y40.375 E20.58905
G1 X27.384 Y40.032 E20.60137
G1 X27.127 Y39.73 E20.61351
G1 X26.818 Y39.477 E20.62573
G1 F1800 E19.87573
G1 F600 Z1.2
G0 F7200 X27.13 Y38.965 Z1.2
G0 X36.72 Y38.933
G1 F600 Z0.2
G1 F720 E20.62573
G1 F1200 X36.346 Y38.85 E20.63745
G1 X36.073 Y38.825 E20.64584
G1 X35.86 Y38.822 E20.65236
G1 X35.45 Y38.868 E20.66498
G1 X35.041 Y38.978 E20.67794
G1 X34.634 Y39.167 E20.69167
G1 X34.273 Y39.418 E20.70513
G1 X34.157 Y39.521 E20.70987
G1 X33.95 Y39.732 E20.71892
G1 X33.843 Y39.869 E20.72424
G1 X33.69 Y40.093 E20.73254
G1 X33.604 Y40.248 E20.73796
G1 X33.498 Y40.475 E20.74563
G1 X33.433 Y40.655 E20.75148
G1 X33.343 Y40.994 E20.76222
G1 X33.307 Y41.37 E20.77378
G1 X33.306 Y41.562 E20.77965
G1 X33.345 Y41.935 E20.79113
G1 X33.425 Y42.254 E20.80119
G1 X33.488 Y42.44 E20.8072
G1 X33.595 Y42.676 E20.81513
G1 X33.68 Y42.834 E20.82062
G1 X33.862 Y43.093 E20.8303
G1 X34.007 Y43.264 E20.83716
G1 X34.252 Y43.501 E20.84759
G1 X34.359 Y43.583 E20.85172
G1 X34.633 Y43.764 E20.86177
G1 X34.942 Y43.913 E20.87227
G1 X35.131 Y43.983 E20.87843
G1 X35.44 Y44.069 E20.88825
G1 X35.564 Y44.09 E20.8921
G1 X35.917 Y44.116 E20.90293
G1 X36.09 Y44.11 E20.90822
G1 X36.385 Y44.081 E20.91729
G1 X36.744 Y43.996 E20.92858
G1 X36.997 Y43.903 E20.93683
G1 X37.189 Y43.811 E20.94334
G1 X37.391 Y43.693 E20.9505
G1 X37.567 Y43.569 E20.95709
G1 X37.751 Y43.415 E20.96443
G1 X37.903 Y43.263 E20.97101
G1 X38.057 Y43.079 E20.97835
G1 X38.181 Y42.903 E20.98494
G1 X38.313 Y42.672 E20.99308
G1 X38.405 Y42.468 E20.99993
G1 X38.481 Y42.256 E21.00682
G1 X38.564 Y41.926 E21.01723
G1 X38.604 Y41.46 E21.03154
G1 X38.572 Y41.088 E21.04297
G1 X38.534 Y40.882 E21.04938
G1 X38.478 Y40.67 E21.05609
G1 X38.387 Y40.423 E21.06414
G1 X38.295 Y40.231 E21.07066
G1 X38.171 Y40.022 E21.07809
G1 X38.052 Y39.854 E21.08439
G1 X37.915 Y39.69 E21.09093
G1 X37.759 Y39.53 E21.09777
G1 X37.563 Y39.363 E21.10565
G1 X37.387 Y39.239 E21.11224
G1 X37.166 Y39.112 E21.12004
G1 X36.966 Y39.02 E21.12677
G1 X36.72 Y38.933 E21.13476
G0 F7200 X37.762 Y40.413
G0 X38.014 Y41.096
G0 X38.016 Y41.83
G0 X37.768 Y42.514
G0 X37.304 Y43.067
G0 X36.95 Y43.274
G0 X35.929 Y43.716
G1 F1200 X35.57 Y43.687 E21.14578
G1 X35.174 Y43.576 E21.15836
G1 X34.832 Y43.417 E21.1699
G1 X34.585 Y43.253 E21.17898
G1 X34.444 Y43.136 E21.18458
G1 X34.244 Y42.931 E21.19335
G1 X34.019 Y42.622 E21.20504
G1 X33.857 Y42.286 E21.21646
G1 X33.811 Y42.149 E21.22088
G1 X33.739 Y41.866 E21.22981
G1 X33.706 Y41.537 E21.23993
G1 X33.706 Y41.399 E21.24415
G1 X33.724 Y41.161 E21.25146
G1 X33.757 Y40.979 E21.25712
G1 X33.864 Y40.636 E21.26811
G1 X34.027 Y40.307 E21.27935
G1 X34.249 Y39.998 E21.29099
G1 X34.523 Y39.731 E21.3027
G1 X34.832 Y39.515 E21.31423
G1 X35.176 Y39.355 E21.32584
G1 X35.531 Y39.26 E21.33709
G1 X35.924 Y39.22 E21.34917
G1 X36.33 Y39.252 E21.36164
G1 X36.623 Y39.321 E21.37085
G1 X36.798 Y39.383 E21.37653
G1 X36.998 Y39.475 E21.38326
G1 X37.156 Y39.566 E21.38884
G1 X37.333 Y39.69 E21.39546
G1 X37.473 Y39.809 E21.40108
G1 X37.629 Y39.969 E21.40792
G1 X37.726 Y40.086 E21.41257
G1 X37.846 Y40.254 E21.41888
G1 X37.934 Y40.403 E21.42418
G1 X38.026 Y40.595 E21.43069
G1 X38.091 Y40.772 E21.43646
G1 X38.147 Y40.984 E21.44317
G1 X38.175 Y41.131 E21.44775
G1 X38.204 Y41.46 E21.45786
G1 X38.17 Y41.857 E21.47005
G1 X38.094 Y42.152 E21.47937
G1 X38.04 Y42.304 E21.48431
G1 X37.948 Y42.508 E21.49116
G1 X37.854 Y42.673 E21.49697
G1 X37.73 Y42.848 E21.50353
G1 X37.62 Y42.98 E21.50879
G1 X37.468 Y43.132 E21.51537
G1 X37.336 Y43.242 E21.52062
G1 X37.161 Y43.366 E21.52719
G1 X37.016 Y43.45 E21.53231
G1 X36.825 Y43.542 E21.5388
G1 X36.644 Y43.608 E21.5447
G1 X36.326 Y43.685 E21.55471
G1 X35.929 Y43.716 E21.56689
G0 F7200 X37.011 Y43.276
G0 X37.558 Y42.815
G0 X37.922 Y42.184
G0 X38.048 Y41.46
G0 X37.919 Y40.745
G0 X37.551 Y40.117
G0 X37.106 Y39.745
