;FLAVOR:Marlin
;TIME:3732
;Filament used: 2.78193m
;Layer height: 0.2
;MINX:13.657
;MINY:31.355
;MINZ:0.2
;MAXX:106.857
;MAXY:114.749
;MAXZ:9
;TARGET_MACHINE.NAME:VORON 0
;Generated with Cura_SteamEngine 5.7.2
M104 S265
M105
M109 S265
M82 ;absolute extrusion mode
;START_PRINT EXTRUDER_TEMP=265 BED_TEMP=110
;Nozzle diameter = 0.4
;Filament type = ABS
;Filament name = ABS
;Filament weight = [7.3604620117187505]
; M190 S110
; M109 S265
print_start EXTRUDER=265 BED=110 CHAMBER=36
G92 E0
G92 E0
G1 F1800 E-0.75
;LAYER_COUNT:40
;LAYER:0
M107
G1 F600 Z1.2
G0 F7200 X17.453 Y32.17 Z1.2
;TYPE:SKIRT
G1 F600 Z0.2
G1 F720 E0
G1 F1200 X17.798 Y32.001 E0.01176
G1 X18.165 Y31.845 E0.02396
G1 X18.521 Y31.716 E0.03554
G1 X18.918 Y31.597 E0.04823
G1 X19.279 Y31.511 E0.05958
G1 X19.675 Y31.438 E0.0719
G1 X20.04 Y31.392 E0.08316
G1 X20.469 Y31.361 E0.09632
G1 X20.88 Y31.356 E0.1089
G1 X21.306 Y31.376 E0.12195
G1 X21.662 Y31.41 E0.13289
G1 X21.967 Y31.455 E0.14233
G1 X22.407 Y31.549 E0.15609
G1 X26.044 Y32.538 E0.27142
G1 X28.665 Y33.164 E0.35388
G1 X31.368 Y33.73 E0.43838
G1 X34.012 Y34.206 E0.52059
G1 X36.743 Y34.619 E0.60511
G1 X39.42 Y34.947 E0.68763
G1 X42.143 Y35.202 E0.77132
G1 X44.846 Y35.379 E0.85421
G1 X47.595 Y35.48 E0.93838
G1 X50.33 Y35.504 E1.02207
G1 X53.029 Y35.451 E1.10468
G1 X55.751 Y35.32 E1.18806
G1 X58.471 Y35.113 E1.27154
G1 X61.213 Y34.826 E1.3559
G1 X63.874 Y34.47 E1.43805
G1 X66.604 Y34.027 E1.52268
G1 X69.282 Y33.513 E1.60612
G1 X71.924 Y32.929 E1.68891
G1 X74.536 Y32.275 E1.7713
G1 X75.1 Y32.112 E1.78927
G1 X77.018 Y31.588 E1.85011
G1 X77.572 Y31.467 E1.86746
G1 X77.931 Y31.412 E1.87857
G1 X78.28 Y31.377 E1.88931
G1 X78.587 Y31.359 E1.89872
G1 X78.943 Y31.355 E1.90961
G1 X79.321 Y31.373 E1.92119
G1 X79.841 Y31.425 E1.93718
G1 X80.366 Y31.517 E1.95349
G1 X80.876 Y31.655 E1.96966
G1 X81.316 Y31.801 E1.98384
G1 X81.769 Y31.987 E1.99883
G1 X82.244 Y32.222 E2.01504
G1 X83.597 Y32.946 E2.062
G1 X86.009 Y34.182 E2.14493
G1 X88.476 Y35.358 E2.22856
G1 X90.992 Y36.473 E2.31277
G1 X93.514 Y37.504 E2.39614
G1 X96.051 Y38.46 E2.4791
G1 X98.628 Y39.347 E2.56249
G1 X101.267 Y40.174 E2.64712
G1 X103.16 Y40.716 E2.70737
G1 X104.235 Y41.014 E2.7415
G1 X104.767 Y41.213 E2.75888
G1 X105.262 Y41.493 E2.77629
G1 X105.66 Y41.805 E2.79176
G1 X106.05 Y42.218 E2.80914
G1 X106.401 Y42.742 E2.82844
G1 X106.635 Y43.261 E2.84586
G1 X106.784 Y43.811 E2.8633
G1 X106.846 Y44.366 E2.88039
G1 X106.856 Y44.707 E2.89082
G1 X106.857 Y100.95 E4.61182
G1 X106.847 Y101.678 E4.6341
G1 X106.787 Y102.276 E4.65249
G1 X106.641 Y102.825 E4.66987
G1 X106.41 Y103.345 E4.68729
G1 X106.101 Y103.821 E4.70465
G1 X105.719 Y104.245 E4.72211
G1 X105.328 Y104.565 E4.73757
G1 X104.78 Y104.884 E4.75698
G1 X104.211 Y105.097 E4.77557
G1 X101.789 Y105.77 E4.85249
G1 X99.184 Y106.57 E4.93587
G1 X96.6 Y107.444 E5.01934
G1 X94.067 Y108.381 E5.10198
G1 X91.516 Y109.408 E5.18613
G1 X88.985 Y110.51 E5.2706
G1 X86.557 Y111.65 E5.35268
G1 X84.139 Y112.872 E5.43558
G1 X83.473 Y113.235 E5.45879
G1 X83.377 Y113.278 E5.46201
G1 X82.167 Y113.921 E5.50393
G1 X81.757 Y114.123 E5.51792
G1 X81.342 Y114.294 E5.53165
G1 X80.894 Y114.446 E5.54613
G1 X80.448 Y114.566 E5.56026
G1 X80.045 Y114.647 E5.57284
G1 X79.688 Y114.698 E5.58388
G1 X79.303 Y114.734 E5.59571
G1 X78.979 Y114.748 E5.60563
G1 X78.617 Y114.746 E5.61671
G1 X78.254 Y114.726 E5.62783
G1 X77.836 Y114.68 E5.6407
G1 X77.4 Y114.604 E5.65424
G1 X76.92 Y114.489 E5.66935
G1 X76.251 Y114.31 E5.69054
G1 X75.016 Y113.955 E5.72986
G1 X72.383 Y113.281 E5.81302
G1 X69.722 Y112.68 E5.8965
G1 X67.019 Y112.15 E5.98078
G1 X64.355 Y111.703 E6.06344
G1 X61.655 Y111.331 E6.14684
G1 X58.913 Y111.031 E6.23124
G1 X56.248 Y110.813 E6.31306
G1 X53.491 Y110.67 E6.39754
G1 X50.772 Y110.603 E6.48076
G1 X48.043 Y110.614 E6.56427
G1 X45.323 Y110.702 E6.64754
G1 X42.588 Y110.868 E6.73139
G1 X39.897 Y111.107 E6.81405
G1 X37.183 Y111.427 E6.89768
G1 X34.486 Y111.822 E6.98108
G1 X31.782 Y112.296 E7.06508
G1 X29.139 Y112.836 E7.14763
G1 X26.509 Y113.453 E7.23029
G1 X22.352 Y114.568 E7.36199
G1 X21.948 Y114.649 E7.3746
G1 X21.569 Y114.702 E7.38631
G1 X21.234 Y114.733 E7.3966
G1 X20.83 Y114.749 E7.40897
G1 X20.454 Y114.743 E7.42048
G1 X20.069 Y114.716 E7.43229
G1 X19.672 Y114.664 E7.44454
G1 X19.2 Y114.574 E7.45924
G1 X18.827 Y114.481 E7.47101
G1 X18.491 Y114.377 E7.48177
G1 X18.164 Y114.257 E7.49243
G1 X17.763 Y114.086 E7.50577
G1 X17.412 Y113.912 E7.51775
G1 X16.936 Y113.63 E7.53468
G1 X16.558 Y113.375 E7.54864
G1 X16.174 Y113.071 E7.56362
G1 X15.819 Y112.744 E7.57839
G1 X15.569 Y112.489 E7.58932
G1 X15.321 Y112.207 E7.60081
G1 X15.11 Y111.939 E7.61125
G1 X14.845 Y111.568 E7.6252
G1 X14.628 Y111.221 E7.63772
G1 X14.442 Y110.879 E7.64963
G1 X14.28 Y110.537 E7.66121
G1 X14.119 Y110.144 E7.67421
G1 X13.966 Y109.686 E7.68899
G1 X13.839 Y109.196 E7.70447
G1 X13.76 Y108.788 E7.71719
G1 X13.707 Y108.381 E7.72975
G1 X13.679 Y108.005 E7.74129
G1 X13.657 Y106.936 E7.774
G1 X13.657 Y39.065 E9.85081
G1 X13.669 Y38.291 E9.8745
G1 X13.698 Y37.801 E9.88952
G1 X13.736 Y37.47 E9.89971
G1 X13.801 Y37.079 E9.91184
G1 X13.887 Y36.699 E9.92376
G1 X14.006 Y36.284 E9.93697
G1 X14.129 Y35.932 E9.94838
G1 X14.285 Y35.553 E9.96092
G1 X14.45 Y35.208 E9.97263
G1 X14.601 Y34.933 E9.98223
G1 X14.757 Y34.677 E9.9914
G1 X15.059 Y34.232 E10.00786
G1 X15.319 Y33.896 E10.02086
G1 X15.562 Y33.619 E10.03213
G1 X15.857 Y33.321 E10.04496
G1 X16.16 Y33.048 E10.05744
G1 X16.437 Y32.823 E10.06836
G1 X16.769 Y32.582 E10.08091
G1 X17.093 Y32.374 E10.0927
G1 X17.453 Y32.17 E10.10536
G0 F7200 X17.63 Y32.529
G1 F1200 X17.955 Y32.369 E10.11644
G1 X18.302 Y32.221 E10.12799
G1 X18.636 Y32.099 E10.13887
G1 X19.012 Y31.986 E10.15088
G1 X19.352 Y31.904 E10.16158
G1 X19.726 Y31.835 E10.17322
G1 X20.07 Y31.791 E10.18383
G1 X20.474 Y31.761 E10.19623
G1 X20.861 Y31.756 E10.20807
G1 X21.287 Y31.776 E10.22112
G1 X21.604 Y31.806 E10.23086
G1 X21.909 Y31.851 E10.2403
G1 X22.302 Y31.935 E10.25259
G1 X25.943 Y32.925 E10.36805
G1 X28.583 Y33.556 E10.45111
G1 X31.287 Y34.122 E10.53564
G1 X33.952 Y34.602 E10.6185
G1 X36.683 Y35.015 E10.70302
G1 X39.371 Y35.344 E10.78588
G1 X42.117 Y35.601 E10.87028
G1 X44.831 Y35.779 E10.9535
G1 X47.58 Y35.88 E11.03768
G1 X50.335 Y35.904 E11.12198
G1 X53.048 Y35.851 E11.20501
G1 X55.77 Y35.72 E11.2884
G1 X58.51 Y35.511 E11.37249
G1 X61.255 Y35.223 E11.45694
G1 X63.938 Y34.865 E11.53977
G1 X66.672 Y34.421 E11.62452
G1 X69.368 Y33.904 E11.70852
G1 X72.01 Y33.32 E11.79132
G1 X74.633 Y32.663 E11.87406
G1 X75.206 Y32.498 E11.8923
G1 X77.103 Y31.979 E11.95248
G1 X77.657 Y31.858 E11.96984
G1 X77.972 Y31.81 E11.97959
G1 X78.303 Y31.776 E11.98977
G1 X78.592 Y31.759 E11.99863
G1 X78.925 Y31.755 E12.00882
G1 X79.281 Y31.771 E12.01972
G1 X79.801 Y31.823 E12.03571
G1 X80.262 Y31.903 E12.05003
G1 X80.75 Y32.035 E12.0655
G1 X81.19 Y32.181 E12.07968
G1 X81.591 Y32.345 E12.09294
G1 X82.055 Y32.575 E12.10879
G1 X83.408 Y33.299 E12.15574
G1 X85.837 Y34.543 E12.23925
G1 X88.314 Y35.724 E12.32322
G1 X90.83 Y36.839 E12.40743
G1 X93.373 Y37.878 E12.49148
G1 X95.921 Y38.838 E12.5748
G1 X98.508 Y39.729 E12.65853
G1 X101.157 Y40.559 E12.74347
G1 X103.05 Y41.101 E12.80372
G1 X104.098 Y41.39 E12.83699
G1 X104.573 Y41.563 E12.85246
G1 X105.015 Y41.808 E12.86792
G1 X105.413 Y42.12 E12.88339
G1 X105.757 Y42.49 E12.89885
G1 X106.038 Y42.91 E12.91432
G1 X106.25 Y43.369 E12.92979
G1 X106.387 Y43.856 E12.94527
G1 X106.446 Y44.378 E12.96134
G1 X106.456 Y44.707 E12.97141
G1 X106.457 Y100.945 E14.69226
G1 X106.447 Y101.673 E14.71454
G1 X106.4 Y102.176 E14.72999
G1 X106.274 Y102.666 E14.74548
G1 X106.073 Y103.13 E14.76095
G1 X105.802 Y103.556 E14.7764
G1 X105.466 Y103.935 E14.7919
G1 X105.075 Y104.255 E14.80736
G1 X104.639 Y104.51 E14.82281
G1 X104.104 Y104.712 E14.84031
G1 X101.682 Y105.385 E14.91723
G1 X99.056 Y106.191 E15.00128
G1 X96.472 Y107.065 E15.08475
G1 X93.928 Y108.006 E15.16775
G1 X91.356 Y109.041 E15.25259
G1 X88.825 Y110.143 E15.33706
G1 X86.387 Y111.288 E15.41948
G1 X83.947 Y112.521 E15.50313
G1 X83.309 Y112.87 E15.52538
G1 X83.2 Y112.919 E15.52904
G1 X81.99 Y113.562 E15.57097
G1 X81.604 Y113.753 E15.58415
G1 X81.213 Y113.915 E15.5971
G1 X80.765 Y114.067 E15.61157
G1 X80.369 Y114.174 E15.62412
G1 X79.987 Y114.251 E15.63605
G1 X79.651 Y114.3 E15.64644
G1 X79.285 Y114.334 E15.65769
G1 X78.98 Y114.348 E15.66703
G1 X78.639 Y114.347 E15.67746
G1 X78.298 Y114.328 E15.68791
G1 X77.88 Y114.282 E15.70078
G1 X77.493 Y114.215 E15.7128
G1 X77.024 Y114.103 E15.72755
G1 X76.361 Y113.925 E15.74856
G1 X75.126 Y113.571 E15.78787
G1 X72.471 Y112.891 E15.87173
G1 X69.799 Y112.287 E15.95556
G1 X67.09 Y111.756 E16.04003
G1 X64.421 Y111.309 E16.12284
G1 X61.699 Y110.933 E16.20692
G1 X58.957 Y110.633 E16.29132
G1 X56.28 Y110.415 E16.37351
G1 X53.501 Y110.27 E16.45866
G1 X50.78 Y110.203 E16.54195
G1 X48.03 Y110.214 E16.62609
G1 X45.31 Y110.302 E16.70937
G1 X42.564 Y110.469 E16.79355
G1 X39.85 Y110.71 E16.87692
G1 X37.125 Y111.031 E16.96088
G1 X34.428 Y111.426 E17.04429
G1 X31.702 Y111.904 E17.12898
G1 X29.059 Y112.444 E17.21152
G1 X26.405 Y113.067 E17.29494
G1 X22.273 Y114.176 E17.42585
G1 X21.892 Y114.253 E17.43774
G1 X21.532 Y114.304 E17.44887
G1 X21.217 Y114.333 E17.45855
G1 X20.836 Y114.349 E17.47022
G1 X20.482 Y114.344 E17.48105
G1 X20.12 Y114.319 E17.49215
G1 X19.746 Y114.271 E17.50369
G1 X19.296 Y114.186 E17.51771
G1 X18.945 Y114.099 E17.52877
G1 X18.628 Y114.001 E17.53892
G1 X18.321 Y113.889 E17.54892
G1 X17.94 Y113.727 E17.56159
G1 X17.615 Y113.567 E17.57268
G1 X17.159 Y113.298 E17.58888
G1 X16.806 Y113.061 E17.60189
G1 X16.422 Y112.757 E17.61687
G1 X16.104 Y112.464 E17.6301
G1 X15.869 Y112.225 E17.64036
G1 X15.635 Y111.959 E17.6512
G1 X15.435 Y111.706 E17.66107
G1 X15.184 Y111.355 E17.67427
G1 X14.979 Y111.029 E17.68606
G1 X14.803 Y110.707 E17.69729
G1 X14.65 Y110.385 E17.7082
G1 X14.489 Y109.992 E17.72119
G1 X14.353 Y109.585 E17.73432
G1 X14.232 Y109.12 E17.74902
G1 X14.157 Y108.735 E17.76103
G1 X14.106 Y108.351 E17.77288
G1 X14.079 Y107.997 E17.78374
G1 X14.057 Y106.928 E17.81646
G1 X14.057 Y39.071 E19.89284
G1 X14.068 Y38.314 E19.91601
G1 X14.095 Y37.847 E19.93032
G1 X14.131 Y37.536 E19.9399
G1 X14.196 Y37.145 E19.95203
G1 X14.277 Y36.788 E19.96323
G1 X14.384 Y36.415 E19.9751
G1 X14.499 Y36.084 E19.98583
G1 X14.646 Y35.725 E19.9977
G1 X14.801 Y35.4 E20.00871
G1 X14.943 Y35.141 E20.01775
G1 X15.099 Y34.885 E20.02693
G1 X15.376 Y34.476 E20.04204
G1 X15.62 Y34.16 E20.05426
G1 X15.863 Y33.883 E20.06553
G1 X16.125 Y33.618 E20.07693
G1 X16.413 Y33.358 E20.08881
G1 X16.673 Y33.146 E20.09907
G1 X16.986 Y32.918 E20.11092
G1 X17.29 Y32.722 E20.12199
G1 X17.63 Y32.529 E20.13395
G1 F1800 E19.38395
G1 F600 Z1.2
;MESH:RPi_mount_adapter_higher.stl
G0 F7200 X22.178 Y36.439 Z1.2
;TYPE:WALL-INNER
G1 F600 Z0.2
G1 F720 E20.13395
G1 F1129.4 X21.87 Y36.252 E20.14567
G1 F1126.8 X21.518 Y36.103 E20.15812
G1 X21.134 Y36.013 E20.17098
G1 F1124.1 X20.721 Y35.985 E20.1845
G1 F1118.9 X20.344 Y36.02 E20.19692
G1 F1124.1 X20.01 Y36.1 E20.20814
G1 F1121.5 X19.659 Y36.242 E20.22054
G1 F1118.9 X19.299 Y36.463 E20.2344
G1 F1124.1 X19.009 Y36.712 E20.24689
G1 F1121.5 X18.817 Y36.934 E20.2565
G1 F1118.9 X18.732 Y37.049 E20.26119
G1 F1121.5 X18.572 Y37.317 E20.27141
G1 X18.414 Y37.697 E20.28489
G1 X18.33 Y38.048 E20.2967
G1 F1116.3 X18.302 Y38.491 E20.3113
G1 F1093.4 X18.322 Y38.844 E20.32318
G1 F1124.1 X18.411 Y39.147 E20.33349
G1 F1188.1 X18.565 Y39.515 E20.34582
G1 F1200 X18.759 Y39.845 E20.35753
G1 X18.989 Y40.128 E20.36869
G1 X19.065 Y40.203 E20.37196
G1 X19.297 Y40.395 E20.38118
G1 X19.614 Y40.596 E20.39266
G1 X19.694 Y40.637 E20.39541
G1 X20.044 Y40.776 E20.40694
G1 X20.328 Y40.844 E20.41587
G1 X20.427 Y40.859 E20.41894
G1 X20.801 Y40.879 E20.4304
G1 X21.153 Y40.849 E20.44121
G1 X21.462 Y40.776 E20.45092
G1 X21.849 Y40.623 E20.46365
G1 X22.19 Y40.415 E20.47588
G1 X22.493 Y40.156 E20.48807
G1 X22.746 Y39.851 E20.5002
G1 X22.912 Y39.582 E20.50987
G1 X23.062 Y39.239 E20.52133
G1 F1121.5 X23.202 Y38.783 E20.53695
G1 F1078.7 X23.211 Y38.474 E20.54747
G1 F1116.3 X23.183 Y38.072 E20.56072
G1 X23.128 Y37.818 E20.56927
G1 X23.074 Y37.632 E20.57564
G1 F1118.9 X22.941 Y37.323 E20.58668
G1 F1121.5 X22.73 Y36.979 E20.5999
G1 F1126.8 X22.503 Y36.715 E20.61124
G1 X22.178 Y36.439 E20.62514
G1 F1800 E19.87514
G0 F7200 X22.326 Y36.196
G0 X22.307 Y36.255
G0 X22.924 Y36.858
G0 X23.309 Y37.612
G0 X23.44 Y38.433
G0 X23.309 Y39.27
G0 X22.933 Y40.011
G0 X22.339 Y40.608
G0 X20.102 Y41.777
G0 X18.838 Y41.271
G0 X18.41 Y48.468
G1 F720 E20.62514
G1 F695.7 X18.391 Y48.687 E20.63674
G1 F720.7 X18.384 Y49.096 E20.65758
G1 F711.1 X18.4 Y49.405 E20.67356
G0 F7200 X18.944 Y47.942
G0 X19.406 Y47.389
G0 X20.033 Y47.023
G0 X20.613 Y46.919
G0 X21.542 Y46.987
G0 X21.415 Y47.259
G1 F1200 X21.082 Y47.161 E20.68418
G1 X20.796 Y47.137 E20.69296
G1 X20.477 Y47.158 E20.70275
G1 X20.371 Y47.177 E20.70604
G1 X20.155 Y47.237 E20.7129
G1 X19.873 Y47.36 E20.72231
G1 X19.78 Y47.415 E20.72562
G1 X19.523 Y47.607 E20.73544
G1 X19.371 Y47.759 E20.74201
G1 X19.3 Y47.845 E20.74543
G1 X19.134 Y48.1 E20.75474
G1 X19.038 Y48.3 E20.76153
G1 X19 Y48.404 E20.76491
G1 X18.944 Y48.612 E20.77151
G1 X18.925 Y48.725 E20.77501
G1 X18.908 Y48.992 E20.7832
G1 X18.936 Y49.312 E20.79303
G1 X19.003 Y49.575 E20.80133
G1 X19.043 Y49.684 E20.80489
G1 X19.134 Y49.876 E20.81139
G1 X19.185 Y49.962 E20.81445
G1 X19.375 Y50.217 E20.82418
G1 X19.527 Y50.369 E20.83075
G1 X19.614 Y50.44 E20.83419
G1 X19.868 Y50.606 E20.84348
G1 X20.171 Y50.74 E20.85361
G1 X20.38 Y50.796 E20.86023
G1 X20.482 Y50.814 E20.8634
G1 X20.706 Y50.834 E20.87028
G1 X20.815 Y50.834 E20.87362
G1 X21.035 Y50.814 E20.88038
G1 X21.144 Y50.794 E20.88377
G1 X21.444 Y50.701 E20.89338
G1 X21.709 Y50.569 E20.90244
G1 X21.957 Y50.391 E20.91178
G1 X22.131 Y50.223 E20.91918
G1 X22.196 Y50.148 E20.92222
G1 X22.365 Y49.893 E20.93158
G1 X22.491 Y49.622 E20.94073
G1 X22.58 Y49.275 E20.95169
G1 X22.603 Y48.943 E20.96187
G1 X22.577 Y48.662 E20.97051
G1 X22.488 Y48.342 E20.98067
G1 X22.36 Y48.059 E20.99017
G1 X22.177 Y47.804 E20.99978
G1 X21.981 Y47.603 E21.00837
G1 X21.902 Y47.537 E21.01152
G1 X21.705 Y47.399 E21.01888
G1 X21.415 Y47.259 E21.02873
G1 F1800 E20.27873
G0 F7200 X21.542 Y46.987
G0 X22.102 Y47.384
G0 X22.563 Y47.932
G0 X22.816 Y48.613
G0 X22.818 Y49.35
G0 X22.569 Y50.033
G0 X21.12 Y51.771
G0 X18.84 Y51.068
G0 X18.41 Y97.616
G1 F720 E21.02873
G1 F695.7 X18.391 Y97.835 E21.04033
G1 F720.7 X18.384 Y98.242 E21.06107
G1 F711.1 X18.4 Y98.557 E21.07736
G0 F7200 X18.944 Y97.092
G0 X19.406 Y96.539
G0 X19.762 Y96.332
G0 X20.45 Y96.011
G0 X20.477 Y96.31
G1 F1200 X20.165 Y96.383 E21.08716
G1 X20.061 Y96.42 E21.09054
G1 X19.873 Y96.508 E21.09689
G1 X19.78 Y96.563 E21.1002
G1 X19.523 Y96.755 E21.11002
G1 X19.371 Y96.907 E21.11659
G1 X19.3 Y96.993 E21.12001
G1 X19.134 Y97.248 E21.12932
G1 X19.038 Y97.448 E21.13611
G1 X19 Y97.552 E21.13949
G1 X18.944 Y97.76 E21.14608
G1 X18.925 Y97.873 E21.14959
G1 X18.909 Y98.097 E21.15646
G1 X18.936 Y98.464 E21.16772
G1 X19.003 Y98.726 E21.176
G1 X19.043 Y98.832 E21.17946
G1 X19.134 Y99.024 E21.18597
G1 X19.185 Y99.11 E21.18903
G1 X19.375 Y99.365 E21.19876
G1 X19.527 Y99.517 E21.20533
G1 X19.782 Y99.707 E21.21506
G1 X19.877 Y99.762 E21.21842
G1 X20.077 Y99.854 E21.22516
G1 X20.38 Y99.944 E21.23483
G1 X20.482 Y99.962 E21.238
G1 X20.799 Y99.983 E21.24772
G1 X21.132 Y99.945 E21.25798
G1 X21.397 Y99.869 E21.26641
G1 X21.686 Y99.735 E21.27616
G1 X21.941 Y99.556 E21.2857
G1 X22.137 Y99.365 E21.29407
G1 X22.195 Y99.297 E21.2968
G1 X22.354 Y99.065 E21.30541
G1 X22.491 Y98.769 E21.31539
G1 X22.581 Y98.419 E21.32645
G1 X22.604 Y98.15 E21.33471
G1 X22.579 Y97.823 E21.34475
G1 X22.48 Y97.47 E21.35596
G1 X22.372 Y97.233 E21.36393
G1 X22.183 Y96.96 E21.37409
G1 X21.94 Y96.713 E21.3847
G1 X21.694 Y96.54 E21.3939
G1 X21.4 Y96.401 E21.40385
G1 X21.128 Y96.324 E21.4125
G1 X21.016 Y96.305 E21.41598
G1 X20.796 Y96.289 E21.42273
G1 X20.477 Y96.31 E21.43251
G1 F1800 E20.68251
G0 F7200 X20.45 Y96.011
G0 X19.702 Y96.33
G0 X19.153 Y96.792
G0 X18.79 Y97.422
G0 X18.664 Y98.146
G0 X18.837 Y104.829
G0 X21.254 Y104.968
G0 X21.184 Y105.256
G1 F720 E21.43251
