;FLAVOR:Marlin
;TIME:1197
;Filament used: 0.995579m
;Layer height: 0.2
;MINX:30.795
;MINY:37.251
;MINZ:0.2
;MAXX:89.209
;MAXY:82.73
;MAXZ:8
;TARGET_MACHINE.NAME:VORON 0
;Generated with Cura_SteamEngine 5.7.2
M104 S265
M105
M109 S265
M82 ;absolute extrusion mode
;START_PRINT EXTRUDER_TEMP=265 BED_TEMP=110
;Nozzle diameter = 0.4
;Filament type = ABS
;Filament name = ABS
;Filament weight = [2.63411328125]
; M190 S110
; M109 S265
print_start EXTRUDER=265 BED=110 CHAMBER=36
G92 E0
G92 E0
G1 F1800 E-0.75
;LAYER_COUNT:35
;LAYER:0
M107
G1 F600 Z1.2
G0 F7200 X36.045 Y38.853 Z1.2
;TYPE:SKIRT
G1 F600 Z0.2
G1 F720 E0
G1 F1200 X36.284 Y38.63 E0.01
G1 X36.796 Y38.195 E0.03056
G1 X37.288 Y37.845 E0.04904
G1 X37.775 Y37.604 E0.06566
G1 X38.025 Y37.505 E0.07389
G1 X38.509 Y37.357 E0.08938
G1 X39.261 Y37.264 E0.11256
G1 X40.09 Y37.251 E0.13793
G1 X80.022 Y37.251 E1.35983
G1 X80.728 Y37.261 E1.38143
G1 X81.333 Y37.323 E1.40004
G1 X81.972 Y37.502 E1.42035
G1 X82.193 Y37.588 E1.4276
G1 X82.649 Y37.807 E1.44308
G1 X83.209 Y38.199 E1.464
G1 X83.863 Y38.762 E1.4904
G1 X84.387 Y39.329 E1.51403
G1 X84.706 Y39.763 E1.53051
G1 X84.973 Y40.193 E1.546
G1 X85.141 Y40.556 E1.55824
G1 X85.351 Y41.095 E1.57594
G1 X85.534 Y41.771 E1.59737
G1 X85.621 Y42.398 E1.61674
G1 X85.646 Y42.79 E1.62876
G1 X85.71 Y45.111 E1.6998
G1 X85.858 Y47.798 E1.78215
G1 X86.086 Y50.533 E1.86613
G1 X86.388 Y53.228 E1.94911
G1 X86.77 Y55.947 E2.03313
G1 X87.222 Y58.61 E2.11578
G1 X87.757 Y61.301 E2.19973
G1 X88.666 Y65.168 E2.32129
G1 X89.018 Y66.53 E2.36433
G1 X89.111 Y66.986 E2.37857
G1 X89.157 Y67.314 E2.38871
G1 X89.19 Y67.665 E2.39949
G1 X89.206 Y67.957 E2.40844
G1 X89.209 Y68.298 E2.41888
G1 X89.197 Y68.609 E2.4284
G1 X89.164 Y69.009 E2.44068
G1 X89.111 Y69.398 E2.4527
G1 X89.032 Y69.802 E2.46529
G1 X88.949 Y70.132 E2.4757
G1 X88.824 Y70.54 E2.48876
G1 X88.701 Y70.873 E2.49962
G1 X88.55 Y71.226 E2.51137
G1 X88.411 Y71.515 E2.52118
G1 X88.244 Y71.823 E2.53191
G1 X88.005 Y72.205 E2.54569
G1 X87.652 Y72.696 E2.5642
G1 X87.391 Y73.014 E2.57679
G1 X87.045 Y73.384 E2.59229
G1 X86.674 Y73.724 E2.60769
G1 X86.192 Y74.101 E2.62641
G1 X85.822 Y74.351 E2.64007
G1 X85.361 Y74.621 E2.65642
G1 X84.99 Y74.808 E2.66913
G1 X84.604 Y74.975 E2.682
G1 X84.279 Y75.096 E2.69262
G1 X83.743 Y75.258 E2.70975
G1 X80.91 Y75.981 E2.79922
G1 X78.327 Y76.72 E2.88142
G1 X75.703 Y77.551 E2.96565
G1 X73.141 Y78.442 E3.04865
G1 X70.574 Y79.42 E3.1327
G1 X68.087 Y80.448 E3.21505
G1 X66.412 Y81.202 E3.27126
G1 X65.348 Y81.665 E3.30676
G1 X64.985 Y81.809 E3.31871
G1 X64.061 Y82.13 E3.34865
G1 X63.576 Y82.267 E3.36407
G1 X62.685 Y82.477 E3.39208
G1 X62.195 Y82.563 E3.4073
G1 X61.348 Y82.674 E3.43344
G1 X60.828 Y82.712 E3.44939
G1 X60.096 Y82.73 E3.4718
G1 X59.007 Y82.696 E3.50514
G1 X58.678 Y82.669 E3.51524
G1 X57.644 Y82.528 E3.54717
G1 X57.188 Y82.447 E3.56134
G1 X56.809 Y82.358 E3.57326
G1 X56.019 Y82.146 E3.59828
G1 X55.761 Y82.065 E3.60656
G1 X54.753 Y81.706 E3.6393
G1 X52.984 Y81.054 E3.69699
G1 X50.412 Y80.186 E3.78005
G1 X47.797 Y79.386 E3.86373
G1 X45.185 Y78.666 E3.94664
G1 X42.505 Y78.009 E4.03107
G1 X39.841 Y77.436 E4.11445
G1 X36.615 Y76.836 E4.21486
G1 X36.306 Y76.763 E4.22458
G1 X35.924 Y76.654 E4.23673
G1 X35.6 Y76.543 E4.24721
G1 X35.232 Y76.396 E4.25934
G1 X34.923 Y76.254 E4.26974
G1 X34.572 Y76.072 E4.28184
G1 X34.28 Y75.901 E4.29219
G1 X34.018 Y75.73 E4.30177
G1 X33.762 Y75.545 E4.31143
G1 X33.443 Y75.293 E4.32387
G1 X33.204 Y75.084 E4.33359
G1 X32.877 Y74.771 E4.34744
G1 X32.581 Y74.45 E4.3608
G1 X32.311 Y74.119 E4.37387
G1 X32.088 Y73.812 E4.38548
G1 X31.897 Y73.516 E4.39626
G1 X31.715 Y73.198 E4.40747
G1 X31.508 Y72.785 E4.42161
G1 X31.366 Y72.461 E4.43243
G1 X31.199 Y72.019 E4.44689
G1 X31.089 Y71.673 E4.458
G1 X31.014 Y71.386 E4.46708
G1 X30.924 Y70.908 E4.48196
G1 X30.846 Y70.226 E4.50297
G1 X30.827 Y69.961 E4.51109
G1 X30.795 Y68.964 E4.54162
G1 X30.8 Y67.041 E4.60046
G1 X30.83 Y66.342 E4.62187
G1 X30.899 Y65.641 E4.64342
G1 X30.979 Y65.174 E4.65792
G1 X31.241 Y64.096 E4.69187
G1 X31.579 Y62.811 E4.73253
G1 X32.205 Y60.113 E4.81728
G1 X32.738 Y57.485 E4.89933
G1 X33.207 Y54.784 E4.98321
G1 X33.595 Y52.105 E5.06604
G1 X33.912 Y49.374 E5.15017
G1 X34.147 Y46.678 E5.23298
G1 X34.316 Y43.76 E5.32242
G1 X34.37 Y42.506 E5.36083
G1 X34.431 Y41.983 E5.37694
G1 X34.5 Y41.623 E5.38815
G1 X34.642 Y41.098 E5.4048
G1 X34.716 Y40.889 E5.41158
G1 X34.878 Y40.506 E5.4243
G1 X34.988 Y40.283 E5.43191
G1 X35.159 Y39.977 E5.44264
G1 X35.352 Y39.672 E5.45368
G1 X35.796 Y39.109 E5.47562
G1 X36.045 Y38.853 E5.48655
G0 F7200 X36.319 Y39.145
G1 F1200 X36.543 Y38.935 E5.49595
G1 X37.055 Y38.5 E5.51651
G1 X37.465 Y38.204 E5.53198
G1 X37.952 Y37.963 E5.54861
G1 X38.142 Y37.888 E5.55486
G1 X38.626 Y37.74 E5.57034
G1 X39.267 Y37.664 E5.59009
G1 X40.096 Y37.651 E5.61546
G1 X80.016 Y37.651 E6.83699
G1 X80.722 Y37.661 E6.85859
G1 X81.226 Y37.708 E6.87408
G1 X81.828 Y37.875 E6.8932
G1 X82.02 Y37.949 E6.8995
G1 X82.476 Y38.168 E6.91498
G1 X82.949 Y38.503 E6.93271
G1 X83.57 Y39.034 E6.95771
G1 X84.065 Y39.566 E6.97995
G1 X84.366 Y39.974 E6.99546
G1 X84.633 Y40.404 E7.01095
G1 X84.769 Y40.702 E7.02097
G1 X84.965 Y41.2 E7.03735
G1 X85.148 Y41.876 E7.05878
G1 X85.222 Y42.423 E7.07567
G1 X85.246 Y42.801 E7.08726
G1 X85.31 Y45.122 E7.15831
G1 X85.459 Y47.831 E7.24133
G1 X85.688 Y50.578 E7.32568
G1 X85.99 Y53.273 E7.40866
G1 X86.376 Y56.014 E7.49336
G1 X86.83 Y58.688 E7.57635
G1 X87.368 Y61.393 E7.66074
G1 X88.279 Y65.268 E7.78255
G1 X88.626 Y66.61 E7.82496
G1 X88.719 Y67.066 E7.8392
G1 X88.759 Y67.352 E7.84804
G1 X88.791 Y67.687 E7.85834
G1 X88.806 Y67.961 E7.86673
G1 X88.809 Y68.283 E7.87659
G1 X88.798 Y68.576 E7.88556
G1 X88.765 Y68.976 E7.89784
G1 X88.718 Y69.322 E7.90853
G1 X88.644 Y69.704 E7.92043
G1 X88.561 Y70.034 E7.93084
G1 X88.448 Y70.402 E7.94262
G1 X88.333 Y70.716 E7.95286
G1 X88.19 Y71.052 E7.96403
G1 X88.059 Y71.324 E7.97327
G1 X87.892 Y71.632 E7.98399
G1 X87.68 Y71.972 E7.99625
G1 X87.343 Y72.442 E8.01395
G1 X87.082 Y72.76 E8.02653
G1 X86.775 Y73.089 E8.0403
G1 X86.404 Y73.429 E8.0557
G1 X85.967 Y73.77 E8.07266
G1 X85.619 Y74.006 E8.08553
G1 X85.18 Y74.264 E8.10111
G1 X84.831 Y74.441 E8.11308
G1 X84.464 Y74.6 E8.12532
G1 X84.139 Y74.721 E8.13593
G1 X83.644 Y74.87 E8.15175
G1 X80.806 Y75.594 E8.24137
G1 X78.217 Y76.335 E8.32378
G1 X75.572 Y77.173 E8.40868
G1 X73.01 Y78.064 E8.49168
G1 X70.421 Y79.05 E8.57645
G1 X67.934 Y80.078 E8.6588
G1 X66.252 Y80.835 E8.71524
G1 X65.201 Y81.293 E8.75032
G1 X64.853 Y81.431 E8.76177
G1 X63.952 Y81.745 E8.79097
G1 X63.484 Y81.878 E8.80586
G1 X62.616 Y82.083 E8.83315
G1 X62.143 Y82.166 E8.84784
G1 X61.318 Y82.275 E8.87331
G1 X60.818 Y82.312 E8.88865
G1 X60.108 Y82.33 E8.91038
G1 X59.04 Y82.297 E8.94308
G1 X58.711 Y82.27 E8.95318
G1 X57.714 Y82.134 E8.98397
G1 X57.258 Y82.053 E8.99814
G1 X56.913 Y81.972 E9.00898
G1 X56.138 Y81.764 E9.03354
G1 X55.895 Y81.688 E9.04133
G1 X54.891 Y81.331 E9.07393
G1 X53.112 Y80.675 E9.13195
G1 X50.54 Y79.807 E9.21501
G1 X47.903 Y79 E9.2994
G1 X45.291 Y78.281 E9.3823
G1 X42.589 Y77.618 E9.46743
G1 X39.925 Y77.045 E9.55081
G1 X36.706 Y76.446 E9.651
G1 X36.415 Y76.378 E9.66014
G1 X36.053 Y76.275 E9.67166
G1 X35.748 Y76.171 E9.68152
G1 X35.398 Y76.032 E9.69304
G1 X35.107 Y75.899 E9.70284
G1 X34.773 Y75.726 E9.71434
G1 X34.498 Y75.566 E9.72408
G1 X34.251 Y75.405 E9.7331
G1 X34.01 Y75.232 E9.74218
G1 X33.706 Y74.991 E9.75405
G1 X33.481 Y74.795 E9.76318
G1 X33.154 Y74.482 E9.77703
G1 X32.891 Y74.197 E9.7889
G1 X32.634 Y73.883 E9.80132
G1 X32.424 Y73.595 E9.81222
G1 X32.244 Y73.317 E9.82236
G1 X32.072 Y73.018 E9.83291
G1 X31.874 Y72.625 E9.84638
G1 X31.74 Y72.319 E9.8566
G1 X31.58 Y71.897 E9.87041
G1 X31.476 Y71.572 E9.88085
G1 X31.401 Y71.285 E9.88993
G1 X31.317 Y70.835 E9.90393
G1 X31.245 Y70.197 E9.92358
G1 X31.227 Y69.948 E9.93122
G1 X31.195 Y68.965 E9.96131
G1 X31.2 Y67.058 E10.01967
G1 X31.23 Y66.359 E10.04108
G1 X31.297 Y65.68 E10.06195
G1 X31.368 Y65.268 E10.07475
G1 X31.628 Y64.198 E10.10844
G1 X31.966 Y62.913 E10.1491
G1 X32.595 Y60.203 E10.23423
G1 X33.13 Y57.565 E10.31659
G1 X33.601 Y54.852 E10.40085
G1 X33.991 Y52.162 E10.48402
G1 X34.309 Y49.42 E10.56849
G1 X34.545 Y46.713 E10.65163
G1 X34.716 Y43.777 E10.74163
G1 X34.77 Y42.523 E10.78003
G1 X34.824 Y42.058 E10.79436
G1 X34.893 Y41.698 E10.80557
G1 X35.019 Y41.232 E10.82034
G1 X35.093 Y41.023 E10.82713
G1 X35.237 Y40.682 E10.83846
G1 X35.337 Y40.478 E10.84541
G1 X35.498 Y40.189 E10.85553
G1 X35.667 Y39.919 E10.86528
G1 X36.083 Y39.388 E10.88592
G1 X36.319 Y39.145 E10.89628
G1 F1800 E10.14628
G1 F600 Z1.2
;MESH:housing_rear_x1_rev17.STL
G0 F7200 X38.789 Y42.885 Z1.2
;TYPE:WALL-INNER
G1 F600 Z0.2
G1 F720 E10.89628
G1 F993.8 X38.809 Y42.658 E10.9047
G1 X38.859 Y42.462 E10.91218
G1 X38.901 Y42.36 E10.91625
G1 F985.6 X38.965 Y42.251 E10.92096
G1 F967.7 X39.106 Y42.072 E10.92961
G1 F961.9 X39.539 Y41.697 E10.95147
G1 F965.8 X40.589 Y41.697 E10.99139
G1 X40.373 Y41.782 E11.00022
G1 X40.085 Y41.933 E11.01258
G1 X39.818 Y42.112 E11.0248
G1 X39.629 Y42.268 E11.03412
G1 F963.9 X39.403 Y42.486 E11.04608
G1 F979.6 X39.198 Y42.753 E11.0587
G1 F993.8 X39.04 Y42.986 E11.0691
G1 X38.88 Y43.297 E11.08203
G1 X38.789 Y43.527 E11.09117
G1 X38.789 Y42.885 E11.11489
G0 F7200 X38.986 Y42.741
G0 X38.81 Y44.551
G0 X38.951 Y45.435
G0 X40.557 Y49.321
G1 F1200 X40.462 Y49.498 E11.12103
G1 X40.278 Y49.031 E11.13639
G1 X39.823 Y48.102 E11.16805
G1 X39.722 Y47.826 E11.17704
G1 X40.062 Y48.001 E11.18874
G1 X40.415 Y48.142 E11.20037
G1 X40.807 Y48.256 E11.21286
G1 X40.954 Y48.286 E11.21745
G1 X41.263 Y48.33 E11.227
G1 X41.427 Y48.339 E11.23203
G1 X41.249 Y48.479 E11.23896
G1 X40.968 Y48.758 E11.25108
G1 X40.725 Y49.061 E11.26296
G1 X40.557 Y49.321 E11.27243
G0 F7200 X44.885 Y46.736
G1 F1050.3 X44.991 Y47.016 E11.2829
G1 X45.122 Y47.291 E11.29355
G1 X44.838 Y47.34 E11.30362
G1 X44.593 Y47.405 E11.31249
G1 X44.05 Y47.598 E11.33263
G1 X43.951 Y47.611 E11.33612
G1 X44.172 Y47.427 E11.34618
G1 X44.451 Y47.159 E11.3597
G1 X44.558 Y47.038 E11.36535
G1 X44.789 Y46.74 E11.37853
G1 X44.856 Y46.635 E11.38288
G1 X44.885 Y46.736 E11.38656
G0 F7200 X41.609 Y48.911
G0 X40.691 Y49.967
G1 F1200 X40.783 Y49.748 E11.39383
G1 X40.906 Y49.516 E11.40186
G1 X41.058 Y49.282 E11.4104
G1 X41.274 Y49.016 E11.42088
G1 X41.51 Y48.782 E11.43105
G1 X41.776 Y48.577 E11.44133
G1 X42.028 Y48.421 E11.4504
G1 F1218.3 X42.294 Y48.295 E11.45927
G1 F1253.3 X42.525 Y48.21 E11.46648
G1 F1259.8 X42.86 Y48.12 E11.47659
G1 F1230.8 X43.186 Y48.067 E11.48645
G1 F1206 X43.993 Y48.039 E11.51103
G1 F1200 X44.141 Y48.017 E11.51561
G1 X44.705 Y47.818 E11.53391
G1 X44.934 Y47.757 E11.54116
G1 X45.202 Y47.711 E11.54948
G1 X45.495 Y47.69 E11.55847
G1 X45.796 Y47.696 E11.56768
G1 X45.952 Y47.715 E11.57249
G1 X45.763 Y47.495 E11.58137
G1 X45.602 Y47.265 E11.58996
G1 X45.5 Y47.092 E11.5961
G1 X45.381 Y46.839 E11.60466
G1 X45.288 Y46.59 E11.61279
G1 X45.198 Y46.22 E11.62444
G1 X45.169 Y46.025 E11.63048
G1 F1167.9 X45.141 Y45.574 E11.64468
G1 F965.8 X45.066 Y45.231 E11.65803
G1 X44.911 Y45.545 E11.67135
G1 F1167.9 X44.775 Y45.884 E11.68283
G1 F1200 X44.614 Y46.216 E11.69412
G1 X44.432 Y46.504 E11.70454
G1 X44.223 Y46.771 E11.71492
G1 X43.972 Y47.032 E11.726
G1 X43.684 Y47.275 E11.73753
G1 X43.317 Y47.514 E11.75093
G1 F1206 X43.072 Y47.634 E11.75924
G1 F1227.6 X42.784 Y47.745 E11.76847
G1 F1250 X42.353 Y47.869 E11.78164
G1 F1227.6 X41.956 Y47.936 E11.79369
G1 F1200 X41.608 Y47.947 E11.80434
G1 X41.303 Y47.932 E11.81368
G1 X40.907 Y47.869 E11.82595
G1 X40.557 Y47.768 E11.8371
G1 X40.238 Y47.642 E11.8476
G1 X39.892 Y47.463 E11.85952
G1 X39.613 Y47.273 E11.86985
G1 X39.356 Y47.059 E11.88008
G1 X39.159 Y46.865 E11.88854
G1 X39.171 Y47.148 E11.89721
G1 X39.227 Y47.526 E11.9089
G1 X39.325 Y47.903 E11.92082
G1 X39.451 Y48.253 E11.9322
G1 X39.919 Y49.207 E11.96472
G1 X40.17 Y49.854 E11.98595
G1 X40.376 Y50.575 E12.0089
G1 X40.465 Y51.044 E12.0235
G1 X40.538 Y50.565 E12.03833
G1 X40.609 Y50.221 E12.04908
G1 X40.691 Y49.967 E12.05725
G0 F7200 X41.609 Y48.911
G0 X44.063 Y46.713
G0 X45.066 Y45.231
G1 F880.7 X45.093 Y44.846 E12.07334
G1 F909.1 X45.104 Y44.226 E12.09838
G0 F7200 X45.35 Y42.694
G1 F1227.6 X45.238 Y42.866 E12.10452
G1 X45.136 Y43.051 E12.11084
G1 X44.979 Y42.727 E12.12161
G1 X44.802 Y42.443 E12.13162
G1 X45.546 Y42.444 E12.15387
G1 X45.35 Y42.694 E12.16337
G0 F7200 X44.751 Y43.154
G1 F1200 X44.865 Y43.448 E12.17302
G1 F1182.3 X44.988 Y43.882 E12.18703
G1 F1010.5 X45.104 Y44.226 E12.20022
G1 F958.1 X45.172 Y44.028 E12.20825
G1 F1095.9 X45.229 Y43.894 E12.21313
G1 F1182.3 X45.31 Y43.638 E12.22147
G1 F1200 X45.425 Y43.352 E12.2309
G1 X45.538 Y43.133 E12.23844
G1 X45.75 Y42.817 E12.25008
G1 X45.948 Y42.584 E12.25944
G1 X46.159 Y42.379 E12.26844
G1 X46.402 Y42.187 E12.27792
G1 X46.624 Y42.048 E12.28593
G1 X43.957 Y42.051 E12.36754
G1 X44.209 Y42.313 E12.37867
G1 X44.365 Y42.505 E12.38624
G1 X44.616 Y42.886 E12.4002
G1 X44.751 Y43.154 E12.40938
G0 F7200 X47.229 Y41.951
G0 X47.508 Y41.874
G0 X47.793 Y41.828
G0 X53.241 Y41.826
G0 X53.405 Y41.851
G0 X54.073 Y41.983
G0 X53.966 Y42.263
G1 F1191.1 X53.707 Y42.161 E12.41796
G1 F1151.1 X53.451 Y42.086 E12.42647
G1 F1145.6 X53.246 Y42.062 E12.43309
G1 F1179.4 X52.972 Y42.051 E12.44162
G1 F1194 X48.04 Y42.051 E12.59329
G1 F1179.4 X47.776 Y42.063 E12.60152
G1 F1140.1 X47.575 Y42.09 E12.60805
G1 F1145.6 X47.332 Y42.163 E12.61619
G1 F1188.1 X47.022 Y42.288 E12.62652
G1 F1200 X46.798 Y42.407 E12.63428
G1 X46.618 Y42.523 E12.64083
G1 X46.375 Y42.723 E12.65046
G1 X46.231 Y42.867 E12.65669
G1 X46.058 Y43.072 E12.6649
G1 X45.886 Y43.331 E12.67441
G1 X45.781 Y43.534 E12.68141
G1 X45.683 Y43.781 E12.68954
G1 X45.612 Y44.031 E12.69749
G1 X45.56 Y44.368 E12.70792
G1 X45.552 Y44.6 E12.71503
G1 X45.553 Y45.789 E12.75141
G1 X45.56 Y45.921 E12.75546
G1 X45.599 Y46.191 E12.7638
G1 X45.664 Y46.454 E12.77209
G1 X45.745 Y46.673 E12.77924
G1 X45.849 Y46.896 E12.78677
G1 X45.976 Y47.107 E12.7943
G1 X46.126 Y47.31 E12.80203
G1 X46.288 Y47.489 E12.80941
G1 X46.424 Y47.617 E12.81513
G1 F1159.4 X46.804 Y47.919 E12.8305
G1 F1153.8 X47.049 Y48.075 E12.83974
G1 F1167.9 X50.011 Y50.131 E12.95311
G1 F1162.2 X50.21 Y50.222 E12.96002
G1 F1188.1 X50.506 Y50.331 E12.96977
G1 F1200 X50.747 Y50.389 E12.97735
G1 X51.008 Y50.428 E12.98543
G1 X51.261 Y50.436 E12.99317
G1 X51.5 Y50.425 E13.0005
G1 X51.774 Y50.379 E13.009
G1 X51.995 Y50.323 E13.01597
G1 X52.241 Y50.234 E13.02398
G1 X52.444 Y50.136 E13.03088
G1 X53.056 Y49.757 E13.0529
G1 X53.388 Y49.582 E13.06439
G1 X54.048 Y49.297 E13.08638
G1 X54.282 Y49.167 E13.09458
G1 X54.484 Y49.034 E13.10198
G1 X54.696 Y48.852 E13.11053
G1 X54.885 Y48.658 E13.11881
G1 X55.03 Y48.473 E13.12601
G1 X55.193 Y48.213 E13.1354
G1 X55.316 Y47.941 E13.14453
G1 X55.394 Y47.729 E13.15144
G1 F1197 X55.45 Y47.488 E13.15903
G1 F1176.5 X55.492 Y47.245 E13.16673
G1 F1179.4 X55.5 Y47.033 E13.17333
G1 F1165 X55.492 Y44.292 E13.25972
G1 F1162.2 X55.44 Y44.032 E13.2681
G1 F1194 X55.377 Y43.825 E13.27476
G1 F1200 X55.289 Y43.589 E13.28246
G1 X55.138 Y43.289 E13.29274
G1 X55.001 Y43.085 E13.30026
G1 X54.825 Y42.875 E13.30864
G1 X54.673 Y42.723 E13.31522
G1 X54.473 Y42.555 E13.32321
G1 X54.259 Y42.411 E13.33111
G1 X53.966 Y42.263 E13.34115
G1 F1800 E12.59115
G0 F7200 X54.073 Y41.983
G0 X55.023 Y42.735
G0 X55.5 Y43.467
G0 X55.68 Y44.019
G0 X55.725 Y44.309
G0 X55.726 Y47.28
G0 X55.684 Y47.558
G0 X55.396 Y48.345
G0 X54.929 Y48.947
G0 X52.217 Y51.133
G1 F720 E13.34115
G1 F995.9 X51.864 Y51.56 E13.36158
G1 X51.589 Y51.985 E13.38024
G1 X51.48 Y52.198 E13.38907
G1 X51.449 Y51.872 E13.40114
G1 X51.392 Y51.603 E13.41128
G1 X51.294 Y51.276 E13.42387
G1 X51.589 Y51.262 E13.43476
G1 X51.979 Y51.195 E13.44935
G1 X52.217 Y51.133 E13.45841
G0 F7200 X56.345 Y49.654
G1 F1000 X56.208 Y49.636 E13.46349
G1 X55.7 Y49.607 E13.48217
G1 X55.269 Y49.63 E13.49802
G1 X55.045 Y49.658 E13.50631
G1 X55.328 Y49.407 E13.5202
G1 X55.519 Y49.21 E13.53028
G1 X55.7 Y48.984 E13.54091
G1 X55.88 Y49.209 E13.55149
G1 X56.177 Y49.512 E13.56707
G1 X56.345 Y49.654 E13.57514
G0 F7200 X59.749 Y51.89
G1 F997.9 X59.967 Y51.998 E13.5841
G1 X60.345 Y52.142 E13.59898
